; generated by Slic3r 1.0.1 on 2015-06-18 at 12:32:27

; layer_height = 0.4
; perimeters = 3
; top_solid_layers = 3
; bottom_solid_layers = 3
; fill_density = 0.4
; perimeter_speed = 30
; infill_speed = 60
; travel_speed = 130
; nozzle_diameter = 0.4
; filament_diameter = 1.75
; extrusion_multiplier = 1
; perimeters extrusion width = 0.40mm
; infill extrusion width = 0.42mm
; solid infill extrusion width = 0.42mm
; top infill extrusion width = 0.42mm
; first layer extrusion width = 0.80mm

G21 ; set units to millimeters
M107
M190 S60 ; wait for bed temperature to be reached
M104 S205 ; set temperature
G28 ; home all axes
G1 Z5 F5000 ; lift nozzle
M109 S205 ; wait for temperature to be reached
G90 ; use absolute coordinates
G92 E0
M82 ; use absolute distances for extrusion
G1 F1800.000 E-1.00000
G92 E0
G1 Z0.400 F7800.000
G1 X88.556 Y89.183 F7800.000
G1 E1.00000 F1800.000
G1 X89.086 Y88.693 E1.08573 F540.000
G1 X90.566 Y87.433 E1.31657
G1 X91.146 Y86.983 E1.40376
G1 X91.776 Y86.613 E1.49053
G1 X93.496 Y85.703 E1.72163
G1 X94.156 Y85.393 E1.80823
G1 X94.846 Y85.163 E1.89461
G1 X96.726 Y84.643 E2.12627
G1 X97.436 Y84.483 E2.21271
G1 X98.166 Y84.413 E2.29981
G1 X100.456 Y84.303 E2.57209
G1 X101.526 Y84.383 E2.69953
G1 X103.446 Y84.693 E2.93051
G1 X104.166 Y84.853 E3.01811
G1 X104.856 Y85.083 E3.10449
G1 X106.666 Y85.803 E3.33584
G1 X107.326 Y86.113 E3.42244
G1 X107.946 Y86.483 E3.50819
G1 X109.556 Y87.573 E3.73910
G1 X110.146 Y88.023 E3.82723
G1 X110.676 Y88.523 E3.91376
G1 X112.016 Y89.943 E4.14564
G1 X112.486 Y90.493 E4.23157
G1 X112.886 Y91.093 E4.31721
G1 X113.886 Y92.753 E4.54737
G1 X114.236 Y93.393 E4.63400
G1 X114.506 Y94.083 E4.72200
G1 X115.126 Y95.933 E4.95373
G1 X115.316 Y96.623 E5.03872
G1 X115.426 Y97.333 E5.12405
G1 X115.636 Y99.263 E5.35462
G1 X115.676 Y99.993 E5.44145
G1 X115.646 Y100.713 E5.52704
G1 X115.436 Y102.653 E5.75879
G1 X115.316 Y103.373 E5.84548
G1 X115.116 Y104.073 E5.93194
G1 X114.496 Y105.913 E6.16254
G1 X114.236 Y106.583 E6.24789
G1 X113.896 Y107.223 E6.33396
G1 X112.896 Y108.893 E6.56514
G1 X112.486 Y109.503 E6.65243
G1 X112.006 Y110.073 E6.74093
G1 X110.666 Y111.483 E6.97195
G1 X110.136 Y111.973 E7.05768
G1 X109.556 Y112.413 E7.14414
G1 X107.946 Y113.503 E7.37505
G1 X107.326 Y113.873 E7.46080
G1 X106.666 Y114.183 E7.54740
G1 X104.856 Y114.903 E7.77875
G1 X104.176 Y115.133 E7.86401
G1 X103.476 Y115.283 E7.94903
G1 X101.556 Y115.603 E8.18020
G1 X100.816 Y115.683 E8.26860
G1 X100.076 Y115.683 E8.35649
G1 X98.136 Y115.573 E8.58726
G1 X97.426 Y115.493 E8.67212
G1 X96.726 Y115.343 E8.75714
G1 X94.846 Y114.823 E8.98880
G1 X94.156 Y114.593 E9.07518
G1 X93.496 Y114.283 E9.16179
G1 X91.776 Y113.373 E9.39289
G1 X91.146 Y113.003 E9.47966
G1 X90.566 Y112.553 E9.56685
G1 X89.086 Y111.293 E9.79769
G1 X88.556 Y110.803 E9.88342
G1 X88.096 Y110.253 E9.96857
G1 X86.916 Y108.703 E10.19993
G1 X86.506 Y108.103 E10.28624
G1 X86.166 Y107.473 E10.37126
G1 X85.346 Y105.713 E10.60186
G1 X85.066 Y105.013 E10.69140
G1 X84.876 Y104.283 E10.78099
G1 X84.466 Y102.373 E11.01300
G1 X84.346 Y101.673 E11.09735
G1 X84.316 Y100.963 E11.18175
G1 X84.316 Y99.023 E11.41215
G1 X84.346 Y98.313 E11.49655
G1 X84.466 Y97.603 E11.58207
G1 X84.876 Y95.703 E11.81292
G1 X85.066 Y94.993 E11.90021
G1 X85.346 Y94.303 E11.98864
G1 X86.166 Y92.533 E12.22032
G1 X86.506 Y91.883 E12.30744
G1 X86.916 Y91.283 E12.39375
G1 X88.096 Y89.733 E12.62511
G1 X88.488 Y89.265 E12.69754
G1 F1800.000 E11.69754
G92 E0
G1 X98.342 Y97.485 F7800.000
G1 E1.00000 F1800.000
G1 X98.448 Y97.358 E1.01966 F540.000
G1 X100.503 Y96.996 E1.26749
G1 X102.311 Y98.039 E1.51533
G1 X103.024 Y100.000 E1.76317
G1 X102.311 Y101.961 E2.01101
G1 X100.780 Y102.845 E2.22092
G1 X100.848 Y103.100 E2.25232
G1 X103.324 Y103.100 E2.54630
G1 X103.324 Y106.900 E2.99761
G1 X96.624 Y106.900 E3.79333
G1 X96.624 Y103.100 E4.24464
G1 X98.833 Y103.100 E4.50699
G1 X97.107 Y101.043 E4.82585
G1 X97.107 Y98.957 E5.07368
G1 X98.273 Y97.567 E5.28914
G1 X98.285 Y97.329 F7800.000
G1 X97.248 Y96.567 F7800.000
G1 X95.679 Y98.437 E5.57906 F540.000
G1 X95.679 Y101.672 E5.96326
G1 X95.195 Y101.672 E6.02066
G1 X95.195 Y105.187 E6.43820
G1 X95.020 Y105.247 E6.46022
G1 X93.838 Y103.692 E6.69216
G1 X93.188 Y102.286 E6.87606
G1 X92.855 Y100.774 E7.05997
G1 X92.855 Y99.226 E7.24387
G1 X93.188 Y97.714 E7.42777
G1 X93.838 Y96.308 E7.61168
G1 X94.775 Y95.075 E7.79558
G1 X95.955 Y94.073 E7.97948
G1 X97.323 Y93.348 E8.16338
G1 X98.815 Y92.933 E8.34729
G1 X100.361 Y92.850 E8.53119
G1 X101.889 Y93.100 E8.71509
G1 X103.328 Y93.673 E8.89900
G1 X104.609 Y94.542 E9.08290
G1 X105.674 Y95.666 E9.26680
G1 X106.473 Y96.993 E9.45071
G1 X106.967 Y98.461 E9.63461
G1 X107.135 Y100.000 E9.81851
G1 X106.967 Y101.539 E10.00241
G1 X106.473 Y103.007 E10.18632
G1 X105.674 Y104.334 E10.37022
G1 X104.752 Y105.307 E10.52952
G1 X104.752 Y101.672 E10.96132
G1 X103.936 Y101.672 E11.05824
G1 X104.544 Y100.000 E11.26952
G1 X103.475 Y97.062 E11.64084
G1 X100.767 Y95.499 E12.01217
G1 X97.688 Y96.042 E12.38348
G1 X97.317 Y96.485 E12.45216
G1 X97.795 Y97.026 F7800.000
G1 X96.393 Y98.697 E12.71121 F540.000
G1 X96.393 Y101.303 E13.02079
G1 X97.301 Y102.386 E13.18862
G1 X95.909 Y102.386 E13.35390
G1 X95.909 Y106.825 E13.88115
G1 X94.253 Y105.419 E14.13923
G1 X93.222 Y104.062 E14.34158
G1 X92.507 Y102.516 E14.54393
G1 X92.141 Y100.852 E14.74628
G1 X92.141 Y99.148 E14.94863
G1 X92.507 Y97.484 E15.15099
G1 X93.222 Y95.938 E15.35334
G1 X94.253 Y94.581 E15.55569
G1 X95.552 Y93.478 E15.75804
G1 X97.057 Y92.680 E15.96039
G1 X98.699 Y92.225 E16.16274
G1 X100.400 Y92.132 E16.36510
G1 X102.082 Y92.408 E16.56745
G1 X103.664 Y93.039 E16.76980
G1 X105.075 Y93.995 E16.97215
G1 X106.246 Y95.232 E17.17450
G1 X107.125 Y96.692 E17.37686
G1 X107.669 Y98.306 E17.57921
G1 X107.853 Y100.000 E17.78156
G1 X107.669 Y101.694 E17.98391
G1 X107.125 Y103.308 E18.18626
G1 X106.246 Y104.768 E18.38862
G1 X105.075 Y106.005 E18.59097
G1 X104.038 Y106.708 E18.73973
G1 X104.038 Y102.386 E19.25308
G1 X102.916 Y102.386 E19.38632
G1 X103.784 Y100.000 E19.68786
G1 X102.893 Y97.551 E19.99744
G1 X100.635 Y96.247 E20.30702
G1 X98.068 Y96.700 E20.61659
G1 X97.864 Y96.944 E20.65440
G1 X95.149 Y92.884 F7800.000
G1 X96.791 Y92.013 E20.87520 F378.000
G1 X98.583 Y91.516 E21.09600
G1 X100.439 Y91.415 E21.31680
G1 X102.274 Y91.716 E21.53761
G1 X104.001 Y92.404 E21.75841
G1 X105.540 Y93.447 E21.97921
G1 X106.818 Y94.797 E22.20001
G1 X107.777 Y96.390 E22.42081
G1 X108.370 Y98.152 E22.64161
G1 X108.571 Y100.000 E22.86241
G1 X108.370 Y101.848 E23.08321
G1 X107.777 Y103.610 E23.30401
G1 X106.818 Y105.203 E23.52481
G1 X105.540 Y106.553 E23.74561
G1 X104.001 Y107.596 E23.96641
G1 X102.274 Y108.284 E24.18721
G1 X100.439 Y108.585 E24.40801
G1 X98.583 Y108.484 E24.62881
G1 X96.791 Y107.987 E24.84962
G1 X95.149 Y107.116 E25.07042
G1 X93.732 Y105.913 E25.29122
G1 X92.607 Y104.433 E25.51202
G1 X91.826 Y102.745 E25.73282
G1 X91.426 Y100.930 E25.95362
G1 X91.426 Y99.070 E26.17442
G1 X91.826 Y97.255 E26.39522
G1 X92.607 Y95.567 E26.61602
G1 X93.732 Y94.087 E26.83682
G1 X95.067 Y92.953 E27.04490
G1 X95.780 Y93.218 F7800.000
G1 X100.631 Y93.408 F7800.000
G1 X106.551 Y99.328 E28.08364 F1080.000
G1 X106.275 Y97.997 E28.25226
G1 X101.948 Y93.670 E29.01156
G1 X101.507 Y95.340 F7800.000
G1 X99.569 Y93.401 E29.35177 F1080.000
G1 X98.625 Y93.513 E29.46963
G1 X100.196 Y95.084 E29.74527
G1 X99.299 Y95.242 E29.85829
G1 X97.800 Y93.742 E30.12146
G1 X97.063 Y94.060 E30.22106
G1 X98.402 Y95.400 E30.45615
G1 X97.505 Y95.558 E30.56917
G1 X96.373 Y94.426 E30.76786
G1 X95.780 Y94.888 E30.86116
G1 X96.984 Y96.092 E31.07239
G1 X96.502 Y96.666 E31.16532
G1 X95.212 Y95.375 E31.39178
G1 X94.741 Y95.959 E31.48489
G1 X96.021 Y97.239 E31.70949
G1 X95.539 Y97.813 E31.80242
G1 X94.285 Y96.559 E32.02250
G1 X93.949 Y97.278 E32.12098
G1 X95.171 Y98.500 E32.33545
G1 X95.171 Y99.555 E32.46637
G1 X93.639 Y98.023 E32.73514
G1 X93.449 Y98.888 E32.84501
G1 X95.171 Y100.610 E33.14718
G1 X94.688 Y101.182 E33.24009
G1 X93.362 Y99.857 E33.47261
G1 X93.417 Y100.967 E33.61047
G1 X94.688 Y102.237 E33.83343
G1 X93.803 Y102.408 E33.94518
G1 X93.833 Y102.438 E33.95037
G1 F1800.000 E32.95037
G92 E0
G1 X104.465 Y98.297 F7800.000
G1 E1.00000 F1800.000
G1 X106.579 Y100.411 E1.37099 F1080.000
G1 X106.476 Y101.363 E1.48977
G1 X105.069 Y99.956 E1.73664
G1 X104.810 Y100.753 E1.84059
G1 X106.221 Y102.164 E2.08809
G1 X105.314 Y102.312 E2.20214
G1 X105.260 Y102.258 E2.21164
G1 X104.533 Y95.200 F7800.000
G1 X104.235 Y94.902 E2.26402 F1080.000
G1 X105.259 Y103.000 F7800.000
G1 X105.817 Y103.061 E2.29686 F360.000
G1 X105.837 Y103.080 E2.29847 F360.000
G1 X105.650 Y103.391 F7800.000
G1 X105.259 Y103.000 E2.33079 F360.000
G1 X105.259 Y103.497 F7800.000
G1 X105.650 Y103.391 E2.35448 F360.000
G1 X105.463 Y103.701 F7800.000
G1 X105.259 Y103.497 E2.37135 F360.000
G1 X105.463 Y103.701 F7800.000
G1 X105.259 Y103.994 E2.39224 F360.000
G1 X105.269 Y104.004 E2.39307 F360.000
G1 X103.043 Y107.407 F7800.000
G1 X103.053 Y107.417 E2.39386 F360.000
G1 X103.043 Y107.407 F7800.000
G1 X102.700 Y107.543 E2.41466 F360.000
G1 X102.718 Y107.561 E2.41614 F360.000
G1 X101.420 Y107.657 F7800.000
G1 X101.410 Y107.647 E2.41863 F360.000
G1 X100.087 Y107.818 E2.65284 F360.000
G1 X99.916 Y107.647 E2.69523 F360.000
G1 X98.433 Y107.657 E2.95574 F360.000
G1 X98.447 Y107.671 E2.95931 F360.000
G1 X96.844 Y107.441 F7800.000
G1 X96.820 Y107.417 E2.96122 F360.000
G1 X94.678 Y103.943 F7800.000
G1 X94.626 Y103.891 E2.96928 F360.000
G1 X94.688 Y103.028 E3.06345 F360.000
G1 X94.669 Y103.009 E3.06639 F360.000
M106 S255
M104 S190 ; set temperature
G1 F1800.000 E2.06639
G92 E0
G1 Z0.800 F7800.000
G1 X96.424 Y102.900 F7800.000
G1 E1.00000 F1800.000
G1 X98.404 Y102.900 E1.13172 F841.974
G1 X96.907 Y101.116 E1.28662
G1 X96.907 Y98.884 E1.43511
G1 X98.342 Y97.174 E1.58361
G1 X100.540 Y96.786 E1.73211
G1 X102.474 Y97.902 E1.88061
G1 X103.237 Y100.000 E2.02911
G1 X102.474 Y102.098 E2.17760
G1 X101.332 Y102.757 E2.26531
G1 X101.370 Y102.900 E2.27516
G1 X103.524 Y102.900 E2.41841
G1 X103.524 Y107.100 E2.69780
G1 X96.424 Y107.100 E3.17009
G1 X96.424 Y102.960 E3.44549
G1 X97.471 Y101.166 F7800.000
G1 X97.307 Y100.971 E3.46242 F841.974
G1 X97.307 Y99.029 E3.59155
G1 X98.555 Y97.542 E3.72068
G1 X100.466 Y97.205 E3.84981
G1 X102.148 Y98.176 E3.97894
G1 X102.811 Y100.000 E4.10806
G1 X102.148 Y101.824 E4.23719
G1 X100.466 Y102.795 E4.36632
G1 X98.555 Y102.458 E4.49545
G1 X97.509 Y101.212 E4.60366
G1 X97.220 Y101.210 F7800.000
G1 X96.824 Y103.300 F7800.000
G1 X103.124 Y103.300 E5.02273 F841.974
G1 X103.124 Y106.700 E5.24890
G1 X96.824 Y106.700 E5.66798
G1 X96.824 Y103.360 E5.89016
G1 X96.824 Y102.900 F7800.000
G1 F1800.000 E4.89016
G92 E0
G1 X95.343 Y106.494 F7800.000
G1 X94.217 Y109.339 F7800.000
G1 X103.807 Y110.257 F7800.000
G1 X102.621 Y107.500 F7800.000
G1 X98.308 Y107.500 F7800.000
G1 E1.00000 F1800.000
G1 X101.446 Y107.500 E1.20869 F841.974
G1 X101.471 Y107.808 E1.22924
G1 X100.406 Y107.982 E1.30099
G1 X98.298 Y107.868 E1.44142
G1 X98.307 Y107.560 E1.46192
G1 X96.024 Y106.901 F7800.000
G1 X95.487 Y106.617 E1.50229 F841.974
G1 X94.170 Y105.498 E1.61728
G1 X93.124 Y104.121 E1.73227
G1 X92.398 Y102.553 E1.84726
G1 X92.026 Y100.864 E1.96225
G1 X92.026 Y99.136 E2.07723
G1 X92.398 Y97.447 E2.19222
G1 X93.124 Y95.879 E2.30721
G1 X94.170 Y94.502 E2.42220
G1 X95.487 Y93.383 E2.53719
G1 X97.015 Y92.574 E2.65218
G1 X98.680 Y92.111 E2.76717
G1 X100.406 Y92.018 E2.88216
G1 X102.112 Y92.297 E2.99715
G1 X103.718 Y92.937 E3.11213
G1 X105.149 Y93.907 E3.22712
G1 X106.338 Y95.162 E3.34211
G1 X107.229 Y96.643 E3.45710
G1 X107.781 Y98.282 E3.57209
G1 X107.968 Y100.000 E3.68708
G1 X107.781 Y101.718 E3.80207
G1 X107.229 Y103.357 E3.91706
G1 X106.338 Y104.838 E4.03205
G1 X105.149 Y106.093 E4.14703
G1 X103.924 Y106.924 E4.24551
G1 X103.924 Y102.500 E4.53976
G1 X102.753 Y102.500 E4.61764
G1 X103.663 Y100.000 E4.79462
G1 X102.800 Y97.629 E4.96248
G1 X100.614 Y96.367 E5.13035
G1 X98.129 Y96.805 E5.29822
G1 X96.507 Y98.738 E5.46608
G1 X96.507 Y101.262 E5.63395
G1 X97.546 Y102.500 E5.74147
G1 X96.024 Y102.500 E5.84274
G1 X96.024 Y106.841 E6.13150
G1 X95.841 Y107.257 F7800.000
G1 X95.262 Y106.950 E6.17514 F841.974
G1 X93.878 Y105.774 E6.29592
G1 X92.779 Y104.329 E6.41669
G1 X92.017 Y102.681 E6.53747
G1 X91.626 Y100.908 E6.65825
G1 X91.626 Y99.092 E6.77902
G1 X92.017 Y97.319 E6.89980
G1 X92.779 Y95.671 E7.02058
G1 X93.878 Y94.226 E7.14135
G1 X95.262 Y93.050 E7.26213
G1 X96.866 Y92.200 E7.38291
G1 X98.615 Y91.714 E7.50368
G1 X100.428 Y91.616 E7.62446
G1 X102.220 Y91.910 E7.74524
G1 X103.907 Y92.582 E7.86601
G1 X105.409 Y93.601 E7.98679
G1 X106.658 Y94.919 E8.10756
G1 X107.594 Y96.474 E8.22834
G1 X108.174 Y98.195 E8.34912
G1 X108.370 Y100.000 E8.46989
G1 X108.174 Y101.805 E8.59067
G1 X107.594 Y103.526 E8.71145
G1 X106.658 Y105.081 E8.83222
G1 X105.409 Y106.399 E8.95300
G1 X104.184 Y107.230 E9.05147
G1 X104.198 Y107.302 E9.05635
G1 X102.220 Y108.090 E9.19799
G1 X100.428 Y108.384 E9.31877
G1 X98.615 Y108.286 E9.43955
G1 X96.866 Y107.800 E9.56032
G1 X95.894 Y107.285 E9.63346
G1 X95.036 Y107.283 F7800.000
G1 X93.586 Y106.051 E9.76003 F600.000
G1 X92.434 Y104.536 E9.88659
G1 X91.635 Y102.809 E10.01316
G1 X91.226 Y100.951 E10.13972
G1 X91.226 Y99.049 E10.26628
G1 X91.635 Y97.191 E10.39285
G1 X92.434 Y95.464 E10.51941
G1 X93.586 Y93.949 E10.64598
G1 X95.036 Y92.717 E10.77254
G1 X96.717 Y91.826 E10.89911
G1 X98.550 Y91.317 E11.02567
G1 X100.450 Y91.214 E11.15223
G1 X102.328 Y91.522 E11.27880
G1 X104.095 Y92.226 E11.40536
G1 X105.670 Y93.294 E11.53193
G1 X106.978 Y94.675 E11.65849
G1 X107.959 Y96.305 E11.78505
G1 X108.567 Y98.109 E11.91162
G1 X108.772 Y100.000 E12.03818
G1 X108.567 Y101.891 E12.16475
G1 X107.959 Y103.695 E12.29131
G1 X106.978 Y105.325 E12.41787
G1 X105.670 Y106.706 E12.54444
G1 X104.095 Y107.774 E12.67100
G1 X102.328 Y108.478 E12.79757
G1 X100.450 Y108.786 E12.92413
G1 X98.550 Y108.683 E13.05069
G1 X96.717 Y108.174 E13.17726
G1 X95.089 Y107.311 E13.29983
G1 X95.079 Y106.885 F7800.000
G1 X95.507 Y106.262 F7800.000
G1 X95.740 Y106.029 E13.32320 F1683.947
G1 X95.740 Y105.425 E13.36607
G1 X95.181 Y105.984 E13.42222
G1 X94.854 Y105.707 E13.45263
G1 X95.740 Y104.821 E13.54156
G1 X95.740 Y104.218 E13.58442
G1 X94.528 Y105.430 E13.70613
G1 X94.237 Y105.117 E13.73646
G1 X95.740 Y103.614 E13.88741
G1 X95.740 Y103.010 E13.93027
G1 X93.976 Y104.774 E14.10740
G1 X93.715 Y104.431 E14.13799
G1 X96.478 Y101.668 E14.41538
G1 X96.223 Y101.319 E14.44606
G1 X93.455 Y104.088 E14.72408
G1 X93.240 Y103.698 E14.75565
G1 X96.223 Y100.715 E15.05516
G1 X96.223 Y100.112 E15.09803
G1 X93.049 Y103.286 E15.41671
G1 X92.859 Y102.873 E15.44900
G1 X96.223 Y99.508 E15.78687
G1 X96.223 Y98.904 E15.82974
G1 X92.668 Y102.460 E16.18674
G1 X92.559 Y101.965 E16.22272
G1 X97.969 Y96.554 E16.76596
G1 X96.555 Y93.138 F7800.000
G1 X93.110 Y96.583 E17.11190 F1683.947
G1 X92.643 Y97.655 F7800.000
G1 X97.589 Y92.709 E17.60852 F1683.947
G1 X98.425 Y92.476 E17.67011
G1 X92.472 Y98.429 E18.26777
G1 X92.310 Y99.195 E18.32338
G1 X99.134 Y92.371 E19.00860
G1 X99.773 Y92.336 E19.05399
G1 X92.310 Y99.799 E19.80331
G1 X92.310 Y100.402 E19.84618
G1 X100.407 Y92.305 E20.65922
G1 X100.926 Y92.390 E20.69654
G1 X92.341 Y100.975 E21.55854
G1 X92.450 Y101.470 E21.59451
G1 X101.445 Y92.475 E22.49766
G1 X101.963 Y92.560 E22.53498
G1 X97.980 Y96.543 E22.93493
G1 X98.713 Y96.414 E22.98777
G1 X102.407 Y92.720 E23.35869
G1 X102.839 Y92.892 E23.39169
G1 X99.446 Y96.285 E23.73236
G1 X100.179 Y96.156 E23.78520
G1 X103.271 Y93.064 E24.09562
G1 X103.683 Y93.256 E24.12789
