; generated by Slic3r 1.2.9 on 2016-08-03 at 15:30:12

; external perimeters extrusion width = 0.40mm
; perimeters extrusion width = 0.48mm
; infill extrusion width = 0.48mm
; solid infill extrusion width = 0.48mm
; top infill extrusion width = 0.48mm

M107
M190 S60 ; set bed temperature
M104 S205 ; set temperature
G28 ; home all axes
G1 Z5 F5000 ; lift nozzle
M109 S205 ; wait for temperature to be reached
G21 ; set units to millimeters
G90 ; use absolute coordinates
M82 ; use absolute distances for extrusion
G92 E0
G1 Z0.350 F7800.000
G1 E-1.00000 F2400.00000
G92 E0
G1 X92.619 Y89.037 F7800.000
G1 E1.00000 F2400.00000
G1 X93.648 Y88.111 E1.12593 F1800.000
G1 X94.269 Y87.659 E1.19576
G1 X95.469 Y86.967 E1.32169
G1 X96.170 Y86.654 E1.39153
G1 X97.487 Y86.226 E1.51746
G1 X98.239 Y86.067 E1.58729
G1 X99.616 Y85.922 E1.71323
G1 X100.384 Y85.922 E1.78305
G1 X101.761 Y86.067 E1.90896
G1 X102.513 Y86.226 E1.97882 F1800.000
G1 X103.830 Y86.654 E2.10475
G1 X104.531 Y86.967 E2.17458
G1 X105.731 Y87.659 E2.30052
G1 X106.352 Y88.111 E2.37035
G1 X107.381 Y89.037 E2.49628
G1 X107.895 Y89.608 E2.56611
G1 X108.709 Y90.728 E2.69204
G1 X109.093 Y91.393 E2.76187
G1 X109.656 Y92.659 E2.88781
G1 X109.894 Y93.389 E2.95764
G1 X110.182 Y94.744 E3.08357
G1 X110.262 Y95.508 E3.15340
G1 X110.298 Y96.200 E3.21645
G1 X110.298 Y103.800 E3.90752
G1 X110.262 Y104.492 E3.97056
G1 X110.182 Y105.256 E4.04040
G1 X109.894 Y106.611 E4.16634
G1 X109.656 Y107.341 E4.23616
G1 X109.093 Y108.607 E4.36210
G1 X108.709 Y109.272 E4.43193
G1 X107.895 Y110.392 E4.55787
G1 X107.381 Y110.963 E4.62769
G1 X106.352 Y111.889 E4.75363
G1 X105.731 Y112.341 E4.82345
G1 X104.531 Y113.033 E4.94939
G1 X103.830 Y113.346 E5.01922
G1 X102.513 Y113.774 E5.14514
G1 X101.761 Y113.933 E5.21498
G1 X100.384 Y114.078 E5.34092
G1 X99.616 Y114.078 E5.41075
G1 X98.239 Y113.933 E5.53668
G1 X97.487 Y113.774 E5.60651
G1 X96.170 Y113.346 E5.73245
G1 X95.469 Y113.033 E5.80227
G1 X94.269 Y112.341 E5.92819
G1 X93.648 Y111.889 E5.99804
G1 X92.619 Y110.963 E6.12397
G1 X92.105 Y110.392 E6.19380
G1 X91.291 Y109.272 E6.31974
G1 X90.907 Y108.607 E6.38957
G1 X90.344 Y107.341 E6.51549
G1 X90.106 Y106.611 E6.58533
G1 X89.818 Y105.256 E6.71127
G1 X89.738 Y104.492 E6.78109
G1 X89.702 Y103.800 E6.84415
G1 X89.702 Y96.200 E7.53521
G1 X89.738 Y95.508 E7.59823
G1 X89.818 Y94.744 E7.66809
G1 X90.106 Y93.389 E7.79402
G1 X90.344 Y92.659 E7.86386
G1 X90.907 Y91.394 E7.98979
G1 X91.291 Y90.728 E8.05962
G1 X92.105 Y89.608 E8.18556
G1 X92.579 Y89.082 E8.24993
G1 E7.24993 F2400.00000
G92 E0
G1 X101.553 Y104.929 F7800.000
G1 E1.00000 F2400.00000
G1 X101.130 Y105.352 E1.05441 F1800.000
G1 X100.615 Y105.623 E1.10732
G1 X100.000 Y105.720 E1.16395
G1 X99.407 Y105.626 E1.21857
G1 X98.871 Y105.353 E1.27319
G1 X98.448 Y104.930 E1.32760
G1 X98.177 Y104.415 E1.38052
G1 X98.080 Y103.800 E1.43715
G1 X98.174 Y103.207 E1.49177
G1 X98.447 Y102.671 E1.54639
G1 X98.873 Y102.245 E1.60124
G1 X99.432 Y101.970 E1.65784
G1 X100.000 Y101.880 E1.71015 F1800.000
G1 X100.593 Y101.974 E1.76477
G1 X101.129 Y102.247 E1.81940
G1 X101.553 Y102.671 E1.87402
G1 X101.826 Y103.207 E1.92864
G1 X101.920 Y103.800 E1.98326
G1 X101.826 Y104.393 E2.03788
G1 X101.581 Y104.875 E2.08704
G1 X101.697 Y105.302 F7800.000
G1 X102.074 Y101.326 F7800.000
G1 X100.984 Y100.771 E2.19820 F1800.000
G1 X100.000 Y100.615 E2.28882
G1 X99.049 Y100.765 E2.37633
G1 X97.926 Y101.318 E2.49015
G1 X97.926 Y98.674 E2.73053
G1 X99.016 Y99.229 E2.84169
G1 X100.000 Y99.385 E2.93231
G1 X101.014 Y99.225 E3.02570
G1 X102.074 Y98.668 E3.13452
G1 X102.074 Y101.266 E3.37076
G1 X102.411 Y102.979 F7800.000
G1 X102.065 Y102.300 E3.44005 F1800.000
G1 X101.500 Y101.735 E3.51267
G1 X100.789 Y101.372 E3.58529
G1 X100.000 Y101.247 E3.65790
G1 X99.241 Y101.368 E3.72782
G1 X98.504 Y101.730 E3.80242
G1 X97.935 Y102.300 E3.87567
G1 X97.589 Y102.979 E3.94495
G1 X97.302 Y102.910 E3.97183
G1 X97.302 Y97.104 E4.49968
G1 X97.587 Y97.034 E4.52638
G1 X97.939 Y97.705 E4.59531
G1 X98.500 Y98.265 E4.66734
G1 X99.211 Y98.628 E4.73996
G1 X100.000 Y98.753 E4.81258
G1 X100.815 Y98.624 E4.88758
G1 X101.505 Y98.261 E4.95850
G1 X102.065 Y97.700 E5.03053
G1 X102.411 Y97.021 E5.09982
G1 X102.698 Y97.090 E5.12669
G1 X102.698 Y102.910 E5.65582
G1 X102.469 Y102.965 E5.67724
G1 X100.615 Y98.023 F7800.000
G1 X100.000 Y98.120 E5.73387 F1800.000
G1 X99.407 Y98.026 E5.78849
G1 X98.871 Y97.753 E5.84311
G1 X98.448 Y97.330 E5.89752
G1 X98.177 Y96.815 E5.95043
G1 X98.080 Y96.200 E6.00706
G1 X98.174 Y95.607 E6.06168
G1 X98.447 Y95.071 E6.11630
G1 X98.873 Y94.645 E6.17115
G1 X99.432 Y94.370 E6.22775
G1 X100.000 Y94.280 E6.28007 F1800.000
G1 X100.593 Y94.374 E6.33469
G1 X101.129 Y94.647 E6.38931
G1 X101.552 Y95.070 E6.44372
G1 X101.823 Y95.585 E6.49663
G1 X101.920 Y96.200 E6.55326
G1 X101.826 Y96.793 E6.60788
G1 X101.553 Y97.329 E6.66250
G1 X101.130 Y97.752 E6.71691
G1 X100.668 Y97.995 E6.76437
G1 X100.513 Y98.409 F7800.000
G1 X103.323 Y98.023 F7800.000
G1 X103.323 Y103.782 E7.28805 F1800.000
G1 X103.249 Y104.491 E7.35286
G1 X103.034 Y105.151 E7.41600
G1 X102.687 Y105.752 E7.47914
G1 X102.222 Y106.268 E7.54228
G1 X101.661 Y106.676 E7.60541
G1 X101.026 Y106.959 E7.66855
G1 X100.347 Y107.103 E7.73169
G1 X99.653 Y107.103 E7.79483
G1 X98.974 Y106.959 E7.85797
G1 X98.339 Y106.676 E7.92111
G1 X97.778 Y106.268 E7.98424
G1 X97.313 Y105.752 E8.04738
G1 X96.966 Y105.151 E8.11052
G1 X96.751 Y104.491 E8.17366
G1 X96.677 Y103.782 E8.23847
G1 X96.677 Y96.218 E8.92620
G1 X96.751 Y95.509 E8.99102
G1 X96.966 Y94.849 E9.05416
G1 X97.313 Y94.248 E9.11729
G1 X97.778 Y93.732 E9.18043
G1 X98.339 Y93.324 E9.24357
G1 X98.974 Y93.041 E9.30671
G1 X99.652 Y92.897 E9.36973
G1 X100.372 Y92.902 E9.43526
G1 X101.026 Y93.041 E9.49607 F1800.000
G1 X101.661 Y93.324 E9.55921
G1 X102.222 Y93.732 E9.62235
G1 X102.687 Y94.248 E9.68548
G1 X103.034 Y94.849 E9.74862
G1 X103.249 Y95.509 E9.81176
G1 X103.323 Y96.218 E9.87658
G1 X103.323 Y97.963 E10.03517
G1 X102.977 Y98.223 F7800.000
G1 X102.583 Y96.742 F7800.000
G1 X102.622 Y96.255 E10.12923 F1800.000
G1 X102.552 Y95.658 E10.24521
G1 X102.496 Y95.426 E10.29113
G1 X102.385 Y95.138 E10.35062
G1 X102.120 Y94.660 E10.45607
G1 X101.746 Y94.261 E10.56146
G1 X101.583 Y94.122 E10.60271
G1 X101.304 Y93.941 E10.66681
G1 X100.810 Y93.708 E10.77222
G1 X100.295 Y93.610 E10.87318
G1 X99.941 Y93.590 E10.94164
G1 X99.724 Y93.606 E10.98363
G1 X99.191 Y93.710 E11.08825
G1 X98.696 Y93.941 E11.19358
G1 X98.421 Y94.119 E11.25677
G1 X98.254 Y94.261 E11.29893
G1 X97.880 Y94.660 E11.40434
G1 X97.617 Y95.139 E11.50975
G1 X97.535 Y95.337 E11.55100
G1 X97.448 Y95.658 E11.61510
G1 X97.378 Y96.255 E11.73107
G1 X97.418 Y96.754 E11.82754
G1 X98.329 Y99.405 F7800.000
G1 X98.621 Y99.697 E11.86509 F1800.000
G1 X98.330 Y100.169 F7800.000
G1 X98.637 Y100.476 E11.90451 F1800.000
G1 X99.068 Y100.428 F7800.000
G1 X99.749 Y100.212 E11.96949 F1800.000
G1 X99.870 Y100.017 E11.99034
G1 X99.739 Y99.797 E12.01365
G1 X99.026 Y99.565 E12.08182
G1 X99.874 Y100.000 F7800.000
G1 X101.761 Y100.000 E12.44571 F1800.000
G1 X102.583 Y103.258 F7800.000
G1 X102.622 Y103.745 E12.53977 F1800.000
G1 X102.552 Y104.342 E12.65575
G1 X102.465 Y104.663 E12.71985
G1 X102.383 Y104.861 E12.76110
G1 X102.120 Y105.340 E12.86650
G1 X101.746 Y105.739 E12.97191
G1 X101.494 Y105.942 E13.03424
G1 X101.305 Y106.060 E13.07726
G1 X100.810 Y106.294 E13.18272
G1 X100.273 Y106.394 E13.28816
G1 X100.059 Y106.411 E13.32941
G1 X99.727 Y106.394 E13.39351
G1 X99.190 Y106.292 E13.49892
G1 X98.696 Y106.059 E13.60433
G1 X98.513 Y105.947 E13.64557
G1 X98.254 Y105.739 E13.70967
G1 X97.880 Y105.340 E13.81507
G1 X97.615 Y104.862 E13.92051
G1 X97.504 Y104.574 E13.98000
G1 X97.448 Y104.342 E14.02593
G1 X97.378 Y103.745 E14.14190
G1 X97.417 Y103.258 E14.23596
M104 S195 ; set temperature
G1 Z0.650 F7800.000
G1 E13.23596 F2400.00000
G92 E0
G1 X101.264 Y102.061 F7800.000
G1 E1.00000 F2400.00000
G1 X101.739 Y102.536 E1.03514 F900.000
G1 X102.045 Y103.136 E1.07029
G1 X102.150 Y103.800 E1.10543
G1 X102.045 Y104.464 E1.14058
G1 X101.739 Y105.064 E1.17572
G1 X101.264 Y105.539 E1.21086
G1 X100.664 Y105.845 E1.24601
G1 X100.000 Y105.950 E1.28115
G1 X99.336 Y105.845 E1.31629
G1 X98.736 Y105.539 E1.35144
G1 X98.261 Y105.064 E1.38658
G1 X97.955 Y104.464 E1.42173
G1 X97.850 Y103.800 E1.45687
G1 X97.955 Y103.136 E1.49201
G1 X98.261 Y102.536 E1.52716
G1 X98.736 Y102.061 E1.56230
G1 X99.336 Y101.755 E1.59745
G1 X99.490 Y101.731 E1.60563
G1 X100.000 Y101.650 E1.63259 F900.000
G1 X100.664 Y101.755 E1.66773
G1 X101.210 Y102.033 E1.69974
G1 X101.039 Y102.370 F7800.000
G1 X101.430 Y102.761 E1.72290 F900.000
G1 X101.682 Y103.254 E1.74605
G1 X101.768 Y103.800 E1.76921
G1 X101.682 Y104.346 E1.79237
G1 X101.430 Y104.839 E1.81552
G1 X101.039 Y105.230 E1.83868
G1 X100.546 Y105.482 E1.86183
G1 X100.000 Y105.568 E1.88499
G1 X99.454 Y105.482 E1.90815
G1 X98.961 Y105.230 E1.93130
G1 X98.570 Y104.839 E1.95446
G1 X98.318 Y104.346 E1.97762
G1 X98.232 Y103.800 E2.00077
G1 X98.318 Y103.254 E2.02393
G1 X98.570 Y102.761 E2.04708
G1 X98.961 Y102.370 E2.07024
G1 X99.454 Y102.118 E2.09340
G1 X99.549 Y102.103 E2.09746
G1 X100.000 Y102.032 E2.11655 F900.000
G1 X100.546 Y102.118 E2.13971
G1 X100.986 Y102.342 E2.16035
G1 X101.413 Y102.226 F7800.000
G1 X102.677 Y103.030 F7800.000
G1 X102.485 Y103.076 E2.17070 F900.000
G1 X102.083 Y102.287 E2.21697
G1 X101.513 Y101.717 E2.25905
G1 X100.795 Y101.352 E2.30112
G1 X100.000 Y101.226 E2.34320
G1 X99.205 Y101.352 E2.38527
G1 X98.487 Y101.717 E2.42735
G1 X97.917 Y102.287 E2.46943
G1 X97.515 Y103.076 E2.51569
G1 X97.323 Y103.030 E2.52604
G1 X97.323 Y96.970 E2.84262
G1 X97.515 Y96.924 E2.85297
G1 X97.917 Y97.713 E2.89924
G1 X98.487 Y98.283 E2.94132
G1 X99.205 Y98.648 E2.98339
G1 X100.000 Y98.774 E3.02547
G1 X100.795 Y98.648 E3.06755
G1 X101.513 Y98.283 E3.10962
G1 X102.083 Y97.713 E3.15170
G1 X102.485 Y96.924 E3.19796
G1 X102.677 Y96.970 E3.20832
G1 X102.677 Y102.970 E3.52176
G1 X100.664 Y98.245 F7800.000
G1 X100.000 Y98.350 E3.55690 F900.000
G1 X99.336 Y98.245 E3.59205
G1 X98.736 Y97.939 E3.62719
G1 X98.261 Y97.464 E3.66234
G1 X97.955 Y96.864 E3.69748
G1 X97.850 Y96.200 E3.73262
G1 X97.955 Y95.536 E3.76777
G1 X98.261 Y94.936 E3.80291
G1 X98.736 Y94.461 E3.83806
G1 X99.336 Y94.155 E3.87320
G1 X99.490 Y94.131 E3.88139
G1 X100.000 Y94.050 E3.90834 F900.000
G1 X100.664 Y94.155 E3.94349
G1 X101.264 Y94.461 E3.97863
G1 X101.739 Y94.936 E4.01377
G1 X102.045 Y95.536 E4.04892
G1 X102.150 Y96.200 E4.08406
G1 X102.045 Y96.864 E4.11921
G1 X101.739 Y97.464 E4.15435
G1 X101.264 Y97.939 E4.18949
G1 X100.718 Y98.218 E4.22150
G1 X100.546 Y97.882 F7800.000
G1 X100.000 Y97.968 E4.24466 F900.000
G1 X99.454 Y97.882 E4.26782
G1 X98.961 Y97.630 E4.29097
G1 X98.570 Y97.239 E4.31413
G1 X98.318 Y96.746 E4.33728
G1 X98.232 Y96.200 E4.36044
G1 X98.318 Y95.654 E4.38360
G1 X98.570 Y95.161 E4.40675
G1 X98.961 Y94.770 E4.42991
G1 X99.454 Y94.518 E4.45306
G1 X99.549 Y94.503 E4.45712
G1 X100.000 Y94.432 E4.47622 F900.000
G1 X100.546 Y94.518 E4.49938
G1 X101.039 Y94.770 E4.52253
G1 X101.430 Y95.161 E4.54569
G1 X101.682 Y95.654 E4.56884
G1 X101.768 Y96.200 E4.59200
G1 X101.682 Y96.746 E4.61516
G1 X101.430 Y97.239 E4.63831
G1 X101.039 Y97.630 E4.66147
G1 X100.600 Y97.854 E4.68211
G1 X100.443 Y98.268 F7800.000
G1 X103.096 Y97.882 F7800.000
G1 X103.096 Y103.770 E4.98974 F900.000
G1 X103.025 Y104.443 E5.02511
G1 X102.826 Y105.058 E5.05889
G1 X102.502 Y105.618 E5.09267
G1 X102.070 Y106.098 E5.12646
G1 X101.546 Y106.479 E5.16024
G1 X100.956 Y106.742 E5.19402
G1 X100.323 Y106.876 E5.22780
G1 X99.677 Y106.876 E5.26158
G1 X99.044 Y106.742 E5.29536
G1 X98.454 Y106.479 E5.32914
G1 X97.930 Y106.098 E5.36292
G1 X97.498 Y105.618 E5.39671
G1 X97.174 Y105.058 E5.43049
G1 X96.975 Y104.443 E5.46427
G1 X96.904 Y103.770 E5.49964
G1 X96.904 Y96.230 E5.89354
G1 X96.975 Y95.557 E5.92891
G1 X97.174 Y94.942 E5.96269
G1 X97.498 Y94.382 E5.99647
G1 X97.930 Y93.902 E6.03025
G1 X98.454 Y93.521 E6.06403
G1 X99.044 Y93.258 E6.09781
G1 X99.677 Y93.124 E6.13160
G1 X100.339 Y93.127 E6.16620
G1 X100.956 Y93.258 E6.19914 F900.000
G1 X101.546 Y93.521 E6.23292
G1 X102.070 Y93.902 E6.26670
G1 X102.502 Y94.382 E6.30048
G1 X102.826 Y94.942 E6.33427
G1 X103.025 Y95.557 E6.36805
G1 X103.096 Y96.230 E6.40342
G1 X103.096 Y97.822 E6.48655
G1 X103.473 Y97.882 F7800.000
G1 X103.473 Y103.790 E6.73386 F900.000
G1 X103.396 Y104.522 E6.76469
G1 X103.172 Y105.212 E6.79508
G1 X102.809 Y105.841 E6.82546
G1 X102.323 Y106.380 E6.85585
G1 X101.736 Y106.807 E6.88624
G1 X101.073 Y107.102 E6.91662
G1 X100.363 Y107.253 E6.94701
G1 X99.637 Y107.253 E6.97739
G1 X98.927 Y107.102 E7.00778
G1 X98.264 Y106.807 E7.03817
G1 X97.677 Y106.380 E7.06855
G1 X97.191 Y105.841 E7.09894
G1 X96.828 Y105.212 E7.12932
G1 X96.604 Y104.522 E7.15971
G1 X96.527 Y103.790 E7.19054
G1 X96.527 Y96.210 E7.50780
G1 X96.604 Y95.478 E7.53863
G1 X96.828 Y94.788 E7.56901
G1 X97.191 Y94.159 E7.59940
G1 X97.677 Y93.620 E7.62978
G1 X98.264 Y93.193 E7.66017
G1 X98.927 Y92.898 E7.69056
G1 X99.637 Y92.747 E7.72094
G1 X100.418 Y92.758 E7.75362
G1 X101.073 Y92.898 E7.78167 F900.000
G1 X101.736 Y93.193 E7.81205
G1 X102.323 Y93.620 E7.84244
G1 X102.809 Y94.159 E7.87283
G1 X103.172 Y94.788 E7.90321
G1 X103.396 Y95.478 E7.93360
G1 X103.473 Y96.210 E7.96443
G1 X103.473 Y97.822 E8.03187
G1 X103.127 Y98.082 F7800.000
G1 X102.584 Y96.732 F7800.000
G1 X102.622 Y96.241 E8.08731 F1200.000
G1 X102.552 Y95.658 E8.15345
G1 X102.497 Y95.430 E8.17974
G1 X102.383 Y95.139 E8.21495
G1 X102.121 Y94.659 E8.27648
G1 X101.746 Y94.261 E8.33801
G1 X101.568 Y94.110 E8.36431
G1 X101.304 Y93.941 E8.39952
G1 X100.810 Y93.707 E8.46105
G1 X100.273 Y93.606 E8.52258
G1 X100.040 Y93.587 E8.54888
G1 X99.727 Y93.606 E8.58409
G1 X99.190 Y93.707 E8.64562
G1 X98.696 Y93.941 E8.70715
G1 X98.496 Y94.063 E8.73345
G1 X98.254 Y94.261 E8.76866
G1 X97.879 Y94.659 E8.83019
G1 X97.617 Y95.139 E8.89172
G1 X97.527 Y95.355 E8.91802
G1 X97.448 Y95.658 E8.95323
G1 X97.378 Y96.241 E9.01936
G1 X97.416 Y96.732 E9.07481
G1 X97.570 Y98.087 F7800.000
G1 X97.782 Y97.875 E9.09120 F1200.000
G1 X98.092 Y98.185 E9.11521
G1 X97.570 Y98.707 E9.15562
G1 X97.570 Y99.328 E9.18957
G1 X98.411 Y98.487 E9.25465
G1 X98.822 Y98.696 E9.27989
G1 X97.570 Y99.948 E9.37678
G1 X97.570 Y100.569 E9.41073
G1 X99.247 Y98.892 E9.54048
G1 X99.782 Y98.977 E9.57016
G1 X97.570 Y101.189 E9.74135
G1 X97.570 Y101.810 E9.77531
G1 X100.404 Y98.976 E9.99463
G1 X101.250 Y98.750 E10.04253
G1 X98.750 Y101.250 E10.23598
G1 X99.596 Y101.024 E10.28388
G1 X102.430 Y98.190 E10.50320
G1 X102.430 Y98.811 E10.53715
G1 X100.218 Y101.023 E10.70835
G1 X100.753 Y101.108 E10.73803
G1 X102.430 Y99.431 E10.86778
G1 X102.430 Y100.052 E10.90173
G1 X101.178 Y101.304 E10.99862
G1 X101.589 Y101.513 E11.02386
G1 X102.430 Y100.672 E11.08894
G1 X102.430 Y101.293 E11.12289
G1 X101.908 Y101.815 E11.16330
G1 X102.430 Y101.913 E11.19237
G1 X102.218 Y102.125 E11.20877
G1 X102.584 Y103.268 F7800.000
G1 X102.622 Y103.759 E11.26421 F1200.000
G1 X102.552 Y104.342 E11.33035
G1 X102.473 Y104.645 E11.36556
G1 X102.383 Y104.861 E11.39185
G1 X102.121 Y105.341 E11.45338
G1 X101.746 Y105.739 E11.51492
G1 X101.568 Y105.890 E11.54121
G1 X101.304 Y106.059 E11.57642
G1 X100.810 Y106.293 E11.63795
G1 X100.273 Y106.394 E11.69948
G1 X99.960 Y106.413 E11.73469
G1 X99.727 Y106.394 E11.76099
G1 X99.190 Y106.293 E11.82252
G1 X98.696 Y106.059 E11.88405
G1 X98.496 Y105.937 E11.91035
G1 X98.254 Y105.739 E11.94556
G1 X97.879 Y105.341 E12.00709
G1 X97.617 Y104.861 E12.06862
G1 X97.527 Y104.645 E12.09492
G1 X97.448 Y104.342 E12.13013
G1 X97.378 Y103.759 E12.19626
G1 X97.416 Y103.268 E12.25171
G1 Z0.950 F7800.000
G1 E11.25171 F2400.00000
G92 E0
G1 X101.264 Y102.061 F7800.000
G1 E1.00000 F2400.00000
G1 X101.739 Y102.536 E1.03514 F900.000
G1 X102.045 Y103.136 E1.07029
G1 X102.150 Y103.800 E1.10543
G1 X102.045 Y104.464 E1.14058
G1 X101.739 Y105.064 E1.17572
G1 X101.264 Y105.539 E1.21086
G1 X100.664 Y105.845 E1.24601
G1 X100.000 Y105.950 E1.28115
G1 X99.336 Y105.845 E1.31629
G1 X98.736 Y105.539 E1.35144
G1 X98.261 Y105.064 E1.38658
G1 X97.955 Y104.464 E1.42173
G1 X97.850 Y103.800 E1.45687
