; generated by Slic3r 1.2.9 on 2016-08-04 at 13:03:19

; external perimeters extrusion width = 0.40mm
; perimeters extrusion width = 0.48mm
; infill extrusion width = 0.48mm
; solid infill extrusion width = 0.48mm
; top infill extrusion width = 0.48mm

M107
M190 S60 ; set bed temperature
M104 S205 ; set temperature
G28 ; home all axes
G1 Z5 F5000 ; lift nozzle
M109 S205 ; wait for temperature to be reached
G21 ; set units to millimeters
G90 ; use absolute coordinates
M82 ; use absolute distances for extrusion
G92 E0
G1 E-3.00000 F2400.00000
G92 E0
G1 Z1.000 F7800.000
G1 X87.560 Y87.560 F7800.000
G1 Z0.350 F7800.000
G1 E4.00000 F2400.00000
G1 X88.019 Y87.101 E4.05905 F1800.000
G1 X89.686 Y85.733 E4.25512
G1 X90.766 Y85.011 E4.37321
G1 X92.668 Y83.995 E4.56929
G1 X93.877 Y83.495 E4.68831
G1 X95.968 Y82.864 E4.88687
G1 X97.254 Y82.611 E5.00608
G1 X99.417 Y82.406 E5.20366
G1 X100.698 Y82.408 E5.32013
G1 X102.774 Y82.614 E5.50984 F1800.000
G1 X104.034 Y82.865 E5.62665
G1 X106.124 Y83.495 E5.82507
G1 X107.332 Y83.995 E5.94402
G1 X109.234 Y85.011 E6.14010
G1 X110.314 Y85.733 E6.25819
G1 X111.981 Y87.101 E6.45427
G1 X112.899 Y88.019 E6.57236
G1 X114.267 Y89.686 E6.76844
G1 X114.989 Y90.766 E6.88653
G1 X116.005 Y92.668 E7.08261
G1 X116.502 Y93.867 E7.20070
G1 X117.128 Y95.931 E7.39678
G1 X117.382 Y97.205 E7.51487
G1 X117.593 Y99.351 E7.71095
G1 X117.593 Y100.649 E7.82904
G1 X117.382 Y102.795 E8.02512
G1 X117.128 Y104.069 E8.14321
G1 X116.502 Y106.133 E8.33929
G1 X116.005 Y107.332 E8.45738
G1 X114.989 Y109.234 E8.65345
G1 X114.267 Y110.314 E8.77154
G1 X112.899 Y111.981 E8.96762
G1 X111.981 Y112.899 E9.08571
G1 X110.314 Y114.267 E9.28179
G1 X109.234 Y114.989 E9.39988
G1 X107.332 Y116.005 E9.59596
G1 X106.133 Y116.502 E9.71405
G1 X104.069 Y117.128 E9.91013
G1 X102.795 Y117.382 E10.02822
G1 X100.649 Y117.593 E10.22430
G1 X99.351 Y117.593 E10.34239
G1 X97.205 Y117.382 E10.53847
G1 X95.931 Y117.128 E10.65656
G1 X93.867 Y116.502 E10.85264
G1 X92.668 Y116.005 E10.97073
G1 X90.766 Y114.989 E11.16681
G1 X89.686 Y114.267 E11.28490
G1 X88.019 Y112.899 E11.48098
G1 X87.101 Y111.981 E11.59907
G1 X85.733 Y110.314 E11.79515
G1 X85.011 Y109.234 E11.91324
G1 X83.995 Y107.332 E12.10932
G1 X83.498 Y106.133 E12.22741
G1 X82.872 Y104.069 E12.42348
G1 X82.618 Y102.795 E12.54158
G1 X82.407 Y100.649 E12.73765
G1 X82.407 Y99.351 E12.85574
G1 X82.618 Y97.205 E13.05182
G1 X82.872 Y95.931 E13.16991
G1 X83.498 Y93.867 E13.36599
G1 X83.995 Y92.668 E13.48408
G1 X85.011 Y90.766 E13.68016
G1 X85.733 Y89.686 E13.79825
G1 X87.101 Y88.019 E13.99433
G1 X87.517 Y87.602 E14.04792
G1 F6240
G1 X88.019 Y87.101 E13.78873
G1 F6240
G1 X89.686 Y85.733 E13.00083
G1 F6240
G1 X90.766 Y85.011 E12.52630
G1 F6240
G1 X92.668 Y83.995 E11.73839
G1 F6240
G1 X93.877 Y83.495 E11.26016
G1 F6240
G1 X94.040 Y83.446 E11.19792
G1 E11.04792 F2400.00000
G92 E0
G1 Z1.350 F7800.000
G1 X104.781 Y97.212 F7800.000
G1 Z0.350 F7800.000
G1 E4.00000 F2400.00000
G1 X102.553 Y97.212 E4.20255 F1800.000
G1 X103.459 Y98.567 E4.35076
G1 X103.744 Y100.000 E4.48359
G1 X103.459 Y101.433 E4.61642
G1 X102.647 Y102.647 E4.74925
G1 X101.433 Y103.459 E4.88209
G1 X100.000 Y103.744 E5.01492
G1 X98.567 Y103.459 E5.14775
G1 X97.353 Y102.647 E5.28059
G1 X96.541 Y101.433 E5.41342
G1 X96.256 Y100.000 E5.54625
G1 X96.541 Y98.567 E5.67908
G1 X97.447 Y97.212 E5.82729
G1 X95.051 Y97.212 E6.04510
G1 X95.051 Y92.848 E6.44194
G1 X104.781 Y92.848 E7.32666
G1 X104.781 Y97.152 E7.71805
G1 X104.156 Y96.587 F7800.000
G1 X100.172 Y96.587 E8.08036 F1800.000
G1 X100.139 Y96.926 E8.11135
G1 X101.186 Y97.128 E8.20830
G1 X102.197 Y97.803 E8.31881
G1 X102.870 Y98.811 E8.42905
G1 X103.107 Y100.000 E8.53927
G1 X102.870 Y101.189 E8.64950
G1 X102.197 Y102.197 E8.75973
G1 X101.189 Y102.870 E8.86996
G1 X100.000 Y103.107 E8.98019
G1 X98.811 Y102.870 E9.09041
G1 X97.803 Y102.197 E9.20064
G1 X97.130 Y101.189 E9.31087
G1 X96.893 Y100.000 E9.42110
G1 X97.130 Y98.811 E9.53133
G1 X97.803 Y97.803 E9.64154
G1 X98.806 Y97.132 E9.75131
G1 X99.825 Y96.924 E9.84588
G1 X99.791 Y96.587 E9.87672
G1 X95.676 Y96.587 E10.25093
G1 X95.676 Y93.473 E10.53413
G1 X104.156 Y93.473 E11.30521
G1 X104.156 Y96.527 E11.58295
G1 X104.156 Y96.987 F7800.000
G1 X104.677 Y92.223 F7800.000
G1 X95.323 Y92.223 E12.43345 F1800.000
G1 X95.252 Y91.939 E12.46006
G1 X96.405 Y91.323 E12.57887
G1 X98.191 Y90.784 E12.74854
G1 X100.041 Y90.608 E12.91752
G1 X101.808 Y90.783 E13.07893
G1 X103.595 Y91.323 E13.24875
G1 X104.748 Y91.939 E13.36757
G1 X104.691 Y92.165 E13.38872
G1 X105.406 Y97.837 F7800.000
G1 X105.406 Y92.344 E13.88814 F1800.000
G1 X106.641 Y93.359 E14.03349
G1 X107.810 Y94.782 E14.20092
G1 X108.678 Y96.406 E14.36834
G1 X109.212 Y98.168 E14.53576
G1 X109.392 Y100.000 E14.70319
G1 X109.212 Y101.832 E14.87061
G1 X108.678 Y103.594 E15.03804
G1 X107.810 Y105.218 E15.20546
G1 X106.641 Y106.641 E15.37288
G1 X105.218 Y107.810 E15.54031
G1 X103.594 Y108.678 E15.70773
G1 X101.832 Y109.212 E15.87516
G1 X100.000 Y109.392 E16.04258
G1 X98.168 Y109.212 E16.21000
G1 X96.406 Y108.678 E16.37743
G1 X94.782 Y107.810 E16.54485
G1 X93.359 Y106.641 E16.71228
G1 X92.190 Y105.218 E16.87970
G1 X91.322 Y103.594 E17.04712
G1 X90.788 Y101.832 E17.21455
G1 X90.608 Y100.000 E17.38197
G1 X90.788 Y98.168 E17.54940
G1 X91.322 Y96.406 E17.71682
G1 X92.190 Y94.782 E17.88424
G1 X93.359 Y93.359 E18.05167
G1 X94.426 Y92.482 E18.17727
G1 X94.426 Y97.837 E18.66417
G1 X96.277 Y97.837 E18.83250
G1 X95.952 Y98.323 E18.88570
G1 X95.619 Y100.000 E19.04114
G1 X95.952 Y101.677 E19.19658
G1 X96.902 Y103.098 E19.35202
G1 X98.323 Y104.048 E19.50746
G1 X100.000 Y104.381 E19.66289
G1 X101.677 Y104.048 E19.81833
G1 X103.098 Y103.098 E19.97377
G1 X104.048 Y101.677 E20.12921
G1 X104.381 Y100.000 E20.28464
G1 X104.048 Y98.323 E20.44008
G1 X103.723 Y97.837 E20.49329
G1 X105.346 Y97.837 E20.64090
G1 X109.397 Y96.626 F7800.000
G1 X109.828 Y98.045 E20.77574 F1800.000
G1 X110.020 Y100.000 E20.95435
G1 X109.828 Y101.955 E21.13297
G1 X109.258 Y103.835 E21.31159
G1 X108.332 Y105.567 E21.49020
G1 X107.085 Y107.085 E21.66882
G1 X105.567 Y108.332 E21.84744
G1 X103.835 Y109.258 E22.02605
G1 X101.955 Y109.828 E22.20467
G1 X100.000 Y110.020 E22.38329
G1 X98.045 Y109.828 E22.56190
G1 X96.165 Y109.258 E22.74052
G1 X94.433 Y108.332 E22.91914
G1 X92.915 Y107.085 E23.09775
G1 X91.668 Y105.567 E23.27637
G1 X90.742 Y103.835 E23.45499
G1 X90.172 Y101.955 E23.63360
G1 X89.980 Y100.000 E23.81222
G1 X90.172 Y98.045 E23.99084
G1 X90.742 Y96.165 E24.16945
G1 X91.668 Y94.433 E24.34807
G1 X92.915 Y92.915 E24.52669
G1 X94.433 Y91.668 E24.70530
G1 X96.165 Y90.743 E24.88385
G1 X98.070 Y90.168 E25.06481
G1 X100.042 Y89.980 E25.24496
G1 X101.930 Y90.168 E25.41743
G1 X103.835 Y90.743 E25.59841 F1800.000
G1 X105.567 Y91.668 E25.77697
G1 X107.085 Y92.915 E25.95558
G1 X108.332 Y94.433 E26.13420
G1 X109.258 Y96.165 E26.31282
G1 X109.380 Y96.569 E26.35113
G1 X109.995 Y96.445 F7800.000
G1 X110.444 Y97.923 E26.49157 F1800.000
G1 X110.648 Y100.000 E26.68138
G1 X110.444 Y102.077 E26.87119
G1 X109.838 Y104.075 E27.06100
G1 X108.854 Y105.916 E27.25081
G1 X107.529 Y107.529 E27.44062
G1 X105.916 Y108.854 E27.63043
G1 X104.075 Y109.838 E27.82024
G1 X102.077 Y110.444 E28.01005
G1 X100.000 Y110.648 E28.19986
G1 X97.923 Y110.444 E28.38967
G1 X95.925 Y109.838 E28.57948
G1 X94.084 Y108.854 E28.76929
G1 X92.471 Y107.529 E28.95910
G1 X91.146 Y105.916 E29.14891
G1 X90.162 Y104.075 E29.33871
G1 X89.556 Y102.077 E29.52852
G1 X89.352 Y100.000 E29.71833
G1 X89.556 Y97.923 E29.90814
G1 X90.162 Y95.925 E30.09795
G1 X91.146 Y94.084 E30.28776
G1 X92.471 Y92.471 E30.47757
G1 X94.084 Y91.146 E30.66738
G1 X95.925 Y90.162 E30.85717
G1 X97.949 Y89.552 E31.04941
G1 X100.044 Y89.353 E31.24074
G1 X102.052 Y89.552 E31.42426
G1 X104.075 Y90.162 E31.61641 F1800.000
G1 X105.916 Y91.146 E31.80620
G1 X107.529 Y92.471 E31.99601
G1 X108.854 Y94.084 E32.18582
G1 X109.838 Y95.925 E32.37563
G1 X109.978 Y96.387 E32.41954
G1 X109.722 Y96.737 F7800.000
G1 X106.541 Y94.013 F7800.000
G1 X105.987 Y93.459 E32.49164 F1800.000
G1 X105.784 Y94.151 E32.55804
G1 X108.298 Y96.665 E32.88538
G1 X108.711 Y97.973 E33.01165
G1 X105.784 Y95.046 E33.39274
G1 X105.784 Y95.941 E33.47514
G1 X108.906 Y99.062 E33.88162
G1 X109.004 Y100.055 E33.97346
G1 X105.784 Y96.836 E34.39268
G1 X105.784 Y97.731 E34.47507
G1 X108.937 Y100.884 E34.88565
G1 X108.857 Y101.698 E34.96102
G1 X105.374 Y98.215 E35.41454
G1 X104.480 Y98.215 E35.49693
G1 X108.675 Y102.411 E36.04326
G1 X108.467 Y103.098 E36.10933
G1 X104.654 Y99.285 E36.60585
G1 X104.699 Y100.224 E36.69248
G1 X108.220 Y103.746 E37.15105
G1 X107.909 Y104.329 E37.21194
G1 X104.550 Y100.971 E37.64925
G1 X104.402 Y101.717 E37.71932
G1 X107.597 Y104.912 E38.13538
G1 X107.218 Y105.428 E38.19431
G1 X104.051 Y102.261 E38.60669
G1 X103.692 Y102.797 E38.66609
G1 X106.814 Y105.919 E39.07261
G1 X106.397 Y106.397 E39.13101
G1 X103.334 Y103.334 E39.52983
G1 X102.797 Y103.692 E39.58924
G1 X105.919 Y106.814 E39.99576
G1 X105.428 Y107.218 E40.05431
G1 X102.261 Y104.051 E40.46668
G1 X101.717 Y104.402 E40.52628
G1 X104.912 Y107.597 E40.94234
G1 X104.329 Y107.909 E41.00322
G1 X100.971 Y104.550 E41.44053
G1 X100.224 Y104.699 E41.51061
G1 X103.746 Y108.220 E41.96918
G1 X103.098 Y108.467 E42.03304
G1 X99.285 Y104.654 E42.52957
G1 X98.167 Y104.432 E42.63444
G1 X102.411 Y108.675 E43.18701
G1 X101.698 Y108.857 E43.25475
G1 X91.143 Y98.302 E44.62924
G1 X91.325 Y97.589 E44.69698
G1 X95.568 Y101.833 E45.24955
G1 X95.346 Y100.715 E45.35442
G1 X91.533 Y96.902 E45.85095
G1 X91.780 Y96.254 E45.91482
G1 X95.301 Y99.776 E46.37338
G1 X95.450 Y99.029 E46.44346
G1 X94.636 Y98.215 E46.54943
G1 X94.048 Y97.627 F7800.000
G1 X92.091 Y95.671 E46.80417 F1800.000
G1 X92.403 Y95.088 E46.86506
G1 X94.048 Y96.732 E47.07922
G1 X94.048 Y95.837 E47.16161
G1 X92.782 Y94.572 E47.32638
G1 X93.186 Y94.081 E47.38492
G1 X94.048 Y94.943 E47.49717
G1 X94.048 Y94.048 E47.57956
G1 X93.603 Y93.603 E47.63743
G1 X91.063 Y99.116 F7800.000
G1 X100.884 Y108.937 E48.91629 F1800.000
G1 X100.055 Y109.004 E48.99282
G1 X90.996 Y99.945 E50.17243
G1 X91.094 Y100.938 E50.26427
G1 X99.062 Y108.906 E51.30188
G1 X97.973 Y108.711 E51.40383
G1 X91.289 Y102.027 E52.27414
G1 X91.702 Y103.335 E52.40041
G1 X96.665 Y108.298 E53.04668
G1 X94.013 Y106.541 F7800.000
G1 X93.459 Y105.987 E53.11876 F1800.000
G1 X96.032 Y91.895 F7800.000
G1 X96.584 Y91.756 E53.17047 F1800.000
G1 X96.755 Y91.731 E53.18621
G1 X96.755 Y91.731 F7800.000
G1 X98.331 Y91.498 E53.49339 F1800.000
G1 X100.039 Y91.417 E53.82308
G1 X101.666 Y91.498 E54.13699
G1 X103.245 Y91.731 E54.44482
G1 X103.245 Y91.731 F7800.000
G1 X103.416 Y91.756 E54.46054 F1800.000
G1 X103.968 Y91.895 E54.51226
M104 S195 ; set temperature
G1 F6240
G1 X103.416 Y91.756 E54.30443
G1 F6240
G1 X103.245 Y91.731 E54.24128
G1 E51.51226 F2400.00000
G92 E0
G1 Z1.350 F7800.000
G1 X104.802 Y97.233 F7800.000
G1 Z0.650 F7800.000
G1 E4.00000 F2400.00000
G1 X102.593 Y97.233 E4.11541 F1800.000
G1 X103.479 Y98.559 E4.19871
G1 X103.766 Y100.000 E4.27547
G1 X103.479 Y101.441 E4.35224
G1 X102.663 Y102.663 E4.42900
G1 X101.441 Y103.479 E4.50576
G1 X100.000 Y103.766 E4.58252
G1 X98.559 Y103.479 E4.65928
G1 X97.337 Y102.663 E4.73605
G1 X96.521 Y101.441 E4.81281
G1 X96.234 Y100.000 E4.88957
G1 X96.521 Y98.559 E4.96633
G1 X97.407 Y97.233 E5.04964
G1 X95.030 Y97.233 E5.17381
G1 X95.030 Y92.826 E5.40404
G1 X104.802 Y92.826 E5.91459
G1 X104.802 Y97.173 E6.14169
G1 X104.383 Y96.814 F7800.000
G1 X101.445 Y96.814 E6.29519 F1800.000
G1 X101.391 Y96.993 E6.30493
G1 X102.361 Y97.639 E6.36580
G1 X103.084 Y98.722 E6.43387
G1 X103.339 Y100.000 E6.50193
G1 X103.084 Y101.278 E6.56999
G1 X102.361 Y102.361 E6.63804
G1 X101.278 Y103.084 E6.70610
G1 X100.000 Y103.339 E6.77416
G1 X98.722 Y103.084 E6.84221
G1 X97.639 Y102.361 E6.91027
G1 X96.916 Y101.278 E6.97832
G1 X96.661 Y100.000 E7.04638
G1 X96.916 Y98.722 E7.11444
G1 X97.671 Y97.592 E7.18545
G1 X99.019 Y97.015 E7.26205
G1 X98.977 Y96.814 E7.27276
G1 X95.449 Y96.814 E7.45711
G1 X95.449 Y93.245 E7.64357
G1 X104.383 Y93.245 E8.11035
G1 X104.383 Y96.754 E8.29368
G1 X102.290 Y98.213 F7800.000
G1 X102.729 Y98.870 E8.32674 F900.000
G1 X102.954 Y100.000 E8.37499
G1 X102.729 Y101.130 E8.42324
G1 X102.089 Y102.089 E8.47148
G1 X101.130 Y102.729 E8.51973
G1 X100.000 Y102.954 E8.56798
G1 X98.870 Y102.729 E8.61622
G1 X97.911 Y102.089 E8.66447
G1 X97.271 Y101.130 E8.71272
G1 X97.046 Y100.000 E8.76096
G1 X97.271 Y98.870 E8.80921
G1 X97.922 Y97.895 E8.85828
G1 X99.905 Y97.046 E8.94859 F900.000
G1 X101.123 Y97.268 E9.00040
G1 X102.089 Y97.911 E9.04897
G1 X102.257 Y98.163 E9.06165
G1 X102.689 Y98.187 F7800.000
G1 X104.006 Y96.437 F7800.000
G1 X95.826 Y96.437 E9.40406 F900.000
G1 X95.826 Y93.623 E9.52188
G1 X104.006 Y93.623 E9.86429
G1 X104.006 Y96.377 E9.97960
G1 X104.006 Y96.837 F7800.000
G1 X107.557 Y93.523 F7800.000
G1 X108.314 Y94.445 E10.04192 F1800.000
G1 X109.238 Y96.174 E10.14432
G1 X109.807 Y98.049 E10.24673
G1 X109.999 Y100.000 E10.34914
G1 X109.807 Y101.951 E10.45155
G1 X109.238 Y103.826 E10.55396
G1 X108.314 Y105.555 E10.65636
G1 X107.070 Y107.070 E10.75877
G1 X105.555 Y108.314 E10.86118
G1 X103.826 Y109.238 E10.96359
G1 X101.951 Y109.807 E11.06600
G1 X100.000 Y109.999 E11.16841
G1 X98.049 Y109.807 E11.27081
G1 X96.174 Y109.238 E11.37322
G1 X94.445 Y108.314 E11.47563
G1 X92.930 Y107.070 E11.57804
G1 X91.686 Y105.555 E11.68045
G1 X90.762 Y103.826 E11.78286
G1 X90.193 Y101.951 E11.88526
G1 X90.001 Y100.000 E11.98767
G1 X90.193 Y98.049 E12.09008
G1 X90.762 Y96.174 E12.19249
G1 X91.686 Y94.445 E12.29490
G1 X92.930 Y92.930 E12.39730
G1 X94.445 Y91.686 E12.49971
G1 X96.172 Y90.763 E12.60201
G1 X98.120 Y90.181 E12.70825
G1 X100.070 Y90.008 E12.81051
G1 X103.868 Y90.784 E13.01305
G1 X105.555 Y91.686 E13.11300 F1800.000
G1 X107.070 Y92.930 E13.21541
G1 X107.519 Y93.476 E13.25236
G1 X107.881 Y93.257 F7800.000
G1 X108.664 Y94.211 E13.31684 F1800.000
G1 X109.627 Y96.012 E13.42356
G1 X110.220 Y97.967 E13.53028
G1 X110.420 Y100.000 E13.63700
G1 X110.220 Y102.033 E13.74371
G1 X109.627 Y103.988 E13.85043
G1 X108.664 Y105.789 E13.95715
G1 X107.368 Y107.368 E14.06387
G1 X105.789 Y108.664 E14.17059
G1 X103.988 Y109.627 E14.27731
G1 X102.033 Y110.220 E14.38403
G1 X100.000 Y110.420 E14.49075
G1 X97.967 Y110.220 E14.59747
G1 X96.012 Y109.627 E14.70419
G1 X94.211 Y108.664 E14.81091
G1 X92.632 Y107.368 E14.91762
G1 X91.336 Y105.789 E15.02434
G1 X90.373 Y103.988 E15.13106
G1 X89.780 Y102.033 E15.23778
G1 X89.580 Y100.000 E15.34450
G1 X89.780 Y97.967 E15.45122
G1 X90.373 Y96.012 E15.55794
G1 X91.336 Y94.211 E15.66466
G1 X92.632 Y92.632 E15.77138
G1 X94.211 Y91.336 E15.87810
G1 X96.011 Y90.374 E15.98475
G1 X98.041 Y89.768 E16.09541
G1 X100.094 Y89.585 E16.20308
G1 X104.012 Y90.386 E16.41200
G1 X105.789 Y91.336 E16.51730 F1800.000
G1 X107.368 Y92.632 E16.62402
G1 X107.843 Y93.211 E16.66313
G1 X108.173 Y93.018 F7800.000
G1 X108.979 Y94.000 E16.71634 F900.000
G1 X109.977 Y95.867 E16.80496
G1 X110.592 Y97.893 E16.89358
G1 X110.799 Y100.000 E16.98219
G1 X110.592 Y102.107 E17.07081
G1 X109.977 Y104.133 E17.15943
G1 X108.979 Y106.000 E17.24805
G1 X107.636 Y107.636 E17.33666
G1 X106.000 Y108.979 E17.42528
G1 X104.133 Y109.977 E17.51390
G1 X102.107 Y110.592 E17.60252
G1 X100.000 Y110.799 E17.69113
G1 X97.893 Y110.592 E17.77975
G1 X95.867 Y109.977 E17.86837
G1 X94.000 Y108.979 E17.95699
G1 X92.364 Y107.636 E18.04560
G1 X91.021 Y106.000 E18.13422
G1 X90.023 Y104.133 E18.22284
G1 X89.408 Y102.107 E18.31146
G1 X89.201 Y100.000 E18.40007
G1 X89.408 Y97.893 E18.48869
G1 X90.023 Y95.867 E18.57731
G1 X91.021 Y94.000 E18.66593
G1 X92.364 Y92.364 E18.75454
G1 X94.000 Y91.021 E18.84316
G1 X95.867 Y90.023 E18.93176
G1 X97.970 Y89.395 E19.02361
G1 X100.115 Y89.205 E19.11379
G1 X104.141 Y90.027 E19.28579
G1 X106.000 Y91.021 E19.37401 F900.000
G1 X107.636 Y92.364 E19.46263
G1 X108.135 Y92.971 E19.49552
G1 X108.032 Y93.392 F7800.000
G1 F6240
G1 X108.979 Y94.000 E19.00911
G1 F6240
G1 X109.977 Y95.867 E18.23560
G1 F6240
G1 X110.592 Y97.893 E17.46208
G1 F6240
G1 X110.799 Y100.000 E16.68857
G1 F6240
G1 X110.787 Y100.117 E16.64552
G1 E16.49552 F2400.00000
G92 E0
