; generated by Slic3r 1.1.7 on 2015-05-25 at 12:25:58

; perimeters extrusion width = 0.40mm
; infill extrusion width = 0.42mm
; solid infill extrusion width = 0.42mm
; top infill extrusion width = 0.42mm

G21 ; set units to millimeters
M107
M190 S65 ; wait for bed temperature to be reached
M104 S180 ; set temperature
G28 ; home all axes
G1 Z5 F5000 ; lift nozzle

M109 S180 ; wait for temperature to be reached
G90 ; use absolute coordinates
G92 E0
M82 ; use absolute distances for extrusion
G1 F1800.000 E-1.00000
G92 E0
G1 Z0.400 F7800.000
G1 X87.631 Y87.322 F7800.000
G1 E1.00000 F1800.000
G1 X88.488 Y86.540 E1.13781 F1080.000
G1 X89.393 Y85.816 E1.27545
G1 X90.343 Y85.152 E1.41305
G1 X91.349 Y84.545 E1.55265
G1 X92.364 Y84.019 E1.68841
G1 X93.425 Y83.554 E1.82606
G1 X94.515 Y83.159 E1.96372
G1 X95.189 Y82.954 E2.04739
G1 X95.644 Y82.832 E2.10328
G1 X96.794 Y82.581 E2.24312
G1 X97.735 Y82.431 E2.35625
G1 X98.747 Y82.331 E2.47701
G1 X100.187 Y82.288 E2.64814
G1 X101.320 Y82.336 E2.78284 F1080.000
G1 X102.531 Y82.470 E2.92754
G1 X103.627 Y82.664 E3.05972
G1 X104.795 Y82.950 E3.20256
G1 X105.901 Y83.300 E3.34025
G1 X106.980 Y83.722 E3.47795
G1 X108.030 Y84.213 E3.61560
G1 X108.653 Y84.546 E3.69944
G1 X109.046 Y84.772 E3.75327
G1 X110.022 Y85.396 E3.89092
G1 X110.968 Y86.093 E4.03047
G1 X111.843 Y86.829 E4.16623
G1 X112.357 Y87.311 E4.24996
G1 X112.678 Y87.631 E4.30375
G1 X113.460 Y88.488 E4.44156
G1 X114.194 Y89.406 E4.58110
G1 X114.848 Y90.343 E4.71685
G1 X115.448 Y91.335 E4.85450
G1 X115.981 Y92.364 E4.99216
G1 X116.446 Y93.425 E5.12981
G1 X116.841 Y94.515 E5.26746
G1 X117.046 Y95.190 E5.35117
G1 X117.164 Y95.628 E5.40509
G1 X117.413 Y96.759 E5.54264
G1 X117.588 Y97.906 E5.68044
G1 X117.687 Y99.061 E5.81809
G1 X117.711 Y100.220 E5.95575
G1 X117.658 Y101.377 E6.09336
G1 X117.530 Y102.529 E6.23105
G1 X117.327 Y103.671 E6.36870
G1 X117.167 Y104.356 E6.45234
G1 X117.051 Y104.795 E6.50626
G1 X116.700 Y105.901 E6.64399
G1 X116.278 Y106.980 E6.78168
G1 X115.787 Y108.030 E6.91934
G1 X115.454 Y108.652 E7.00314
G1 X115.228 Y109.046 E7.05700
G1 X114.604 Y110.022 E7.19466
G1 X113.917 Y110.956 E7.33230
G1 X113.171 Y111.843 E7.46997
G1 X112.368 Y112.679 E7.60761
G1 X111.512 Y113.460 E7.74528
G1 X110.607 Y114.184 E7.88292
G1 X109.643 Y114.856 E8.02248
G1 X108.665 Y115.448 E8.15822
G1 X107.636 Y115.981 E8.29588
G1 X106.575 Y116.446 E8.43353
G1 X105.485 Y116.841 E8.57119
G1 X104.356 Y117.168 E8.71074
G1 X103.241 Y117.413 E8.84634
G1 X102.094 Y117.588 E8.98414
G1 X100.939 Y117.687 E9.12179
G1 X99.780 Y117.711 E9.25945
G1 X98.622 Y117.658 E9.39711
G1 X97.471 Y117.530 E9.53475
G1 X96.775 Y117.416 E9.61850
G1 X96.329 Y117.327 E9.67242
G1 X95.204 Y117.050 E9.81008
G1 X94.099 Y116.700 E9.94773
G1 X93.020 Y116.278 E10.08538
G1 X91.970 Y115.787 E10.22305
G1 X90.954 Y115.228 E10.36069
G1 X89.978 Y114.604 E10.49834
G1 X89.404 Y114.193 E10.58212
G1 X89.046 Y113.918 E10.63577
G1 X88.157 Y113.171 E10.77367
G1 X87.322 Y112.369 E10.91118
G1 X86.540 Y111.512 E11.04898
G1 X85.816 Y110.608 E11.18646
G1 X85.152 Y109.657 E11.32428
G1 X84.552 Y108.665 E11.46193
G1 X84.019 Y107.636 E11.59959
G1 X83.554 Y106.575 E11.73724
G1 X83.305 Y105.916 E11.82087
G1 X83.159 Y105.485 E11.87491
G1 X82.836 Y104.372 E12.01252
G1 X82.587 Y103.240 E12.15021
G1 X82.412 Y102.094 E12.28786
G1 X82.343 Y101.393 E12.37146
G1 X82.313 Y100.939 E12.42553
G1 X82.289 Y99.780 E12.56319
G1 X82.342 Y98.622 E12.70085
G1 X82.470 Y97.471 E12.83850
G1 X82.673 Y96.329 E12.97615
G1 X82.950 Y95.204 E13.11380
G1 X83.300 Y94.099 E13.25141
G1 X83.728 Y93.005 E13.39101
G1 X84.213 Y91.970 E13.52677
G1 X84.772 Y90.954 E13.66441
G1 X85.396 Y89.978 E13.80207
G1 X86.083 Y89.044 E13.93971
G1 X86.829 Y88.157 E14.07738
G1 X87.590 Y87.366 E14.20775
G1 F1800.000 E13.20775
G92 E0
G1 X102.870 Y97.351 F7800.000
G1 E1.00000 F1800.000
G1 X103.348 Y98.066 E1.10210 F540.000
G1 X103.572 Y98.520 E1.16221
G1 X103.735 Y98.999 E1.22233
G1 X103.833 Y99.496 E1.28242
G1 X103.867 Y100.000 E1.34251
G1 X103.834 Y100.504 E1.40247
G1 X103.735 Y101.001 E1.46260
G1 X103.572 Y101.480 E1.52272
G1 X103.348 Y101.934 E1.58283
G1 X103.068 Y102.353 E1.64273
G1 X102.731 Y102.737 E1.70338
G1 X102.294 Y103.108 E1.77150
G1 X101.940 Y103.344 E1.82197
G1 X101.491 Y103.568 E1.88159
G1 X101.001 Y103.735 E1.94310
G1 X100.504 Y103.833 E2.00319
G1 X100.000 Y103.867 E2.06327
G1 X99.495 Y103.833 E2.12330
G1 X99.000 Y103.735 E2.18332
G1 X98.509 Y103.568 E2.24488
G1 X98.060 Y103.344 E2.30449
G1 X97.721 Y103.118 E2.35281
G1 X97.269 Y102.737 E2.42307
G1 X96.933 Y102.354 E2.48364
G1 X96.652 Y101.933 E2.54370
G1 X96.428 Y101.480 E2.60373
G1 X96.265 Y101.000 E2.66390
G1 X96.167 Y100.505 E2.72388
G1 X96.133 Y100.000 E2.78403
G1 X96.166 Y99.496 E2.84399
G1 X96.265 Y98.999 E2.90412
G1 X96.428 Y98.520 E2.96424
G1 X96.652 Y98.067 E3.02427
G1 X97.130 Y97.351 E3.12645
G1 X94.912 Y97.351 E3.38982
G1 X94.912 Y92.708 E3.94122
G1 X104.920 Y92.708 E5.12986
G1 X104.920 Y97.351 E5.68126
G1 X102.930 Y97.351 E5.91757
G1 X101.186 Y97.079 F7800.000
G1 X101.609 Y97.293 E5.97387 F378.000
G1 X101.921 Y97.503 E6.01849
G1 X102.227 Y97.771 E6.06685
G1 X102.500 Y98.082 E6.11601
G1 X102.729 Y98.424 E6.16490
G1 X102.911 Y98.794 E6.21386
G1 X103.043 Y99.185 E6.26283
G1 X103.124 Y99.589 E6.31179
G1 X103.151 Y100.000 E6.36074
G1 X103.124 Y100.411 E6.40966
G1 X103.043 Y100.816 E6.45863
G1 X102.911 Y101.206 E6.50760
G1 X102.729 Y101.576 E6.55656
G1 X102.500 Y101.918 E6.60545
G1 X102.227 Y102.229 E6.65461
G1 X101.923 Y102.496 E6.70264
G1 X101.583 Y102.724 E6.75133
G1 X101.210 Y102.910 E6.80075
G1 X100.816 Y103.043 E6.85022
G1 X100.411 Y103.124 E6.89917
G1 X100.000 Y103.151 E6.94813
G1 X99.589 Y103.124 E6.99706
G1 X99.185 Y103.044 E7.04600
G1 X98.790 Y102.910 E7.09548
G1 X98.417 Y102.724 E7.14490
G1 X98.079 Y102.497 E7.19326
G1 X97.773 Y102.229 E7.24163
G1 X97.500 Y101.918 E7.29075
G1 X97.271 Y101.575 E7.33970
G1 X97.089 Y101.206 E7.38864
G1 X96.956 Y100.815 E7.43762
G1 X96.876 Y100.411 E7.48654
G1 X96.849 Y100.000 E7.53552
G1 X96.876 Y99.589 E7.58443
G1 X96.957 Y99.185 E7.63340
G1 X97.089 Y98.794 E7.68237
G1 X97.271 Y98.425 E7.73131
G1 X97.520 Y98.059 E7.78378
G1 X97.773 Y97.771 E7.82935
G1 X98.081 Y97.501 E7.87793
G1 X98.415 Y97.278 E7.92568
G1 X98.814 Y97.079 E7.97867
G1 X98.711 Y96.637 E8.03252
G1 X95.626 Y96.637 E8.39893
G1 X95.626 Y93.423 E8.78070
G1 X104.206 Y93.423 E9.79970
G1 X104.206 Y96.637 E10.18147
G1 X101.289 Y96.637 E10.52792
G1 X101.200 Y97.020 E10.57465
G1 X101.582 Y97.025 F7800.000
G1 X105.634 Y98.065 F7800.000
G1 X105.634 Y92.719 E11.20962 F540.000
G1 X106.485 Y93.515 E11.34798
G1 X106.895 Y93.953 E11.41925
G1 X107.276 Y94.417 E11.49053
G1 X107.625 Y94.905 E11.56180
G1 X107.942 Y95.415 E11.63308
G1 X108.225 Y95.944 E11.70435
G1 X108.473 Y96.491 E11.77562
G1 X108.684 Y97.052 E11.84689
G1 X108.858 Y97.626 E11.91816
G1 X108.994 Y98.211 E11.98944
G1 X109.092 Y98.803 E12.06071
G1 X109.151 Y99.400 E12.13198
G1 X109.171 Y100.000 E12.20326
G1 X109.151 Y100.600 E12.27453
G1 X109.092 Y101.197 E12.34580
G1 X108.994 Y101.789 E12.41707
G1 X108.858 Y102.374 E12.48835
G1 X108.684 Y102.948 E12.55962
G1 X108.473 Y103.509 E12.63089
G1 X108.225 Y104.056 E12.70217
G1 X107.942 Y104.585 E12.77343
G1 X107.625 Y105.095 E12.84470
G1 X107.276 Y105.583 E12.91598
G1 X106.895 Y106.047 E12.98726
G1 X106.485 Y106.485 E13.05853
G1 X106.047 Y106.895 E13.12980
G1 X105.583 Y107.276 E13.20106
G1 X105.095 Y107.625 E13.27235
G1 X104.585 Y107.942 E13.34362
G1 X104.056 Y108.225 E13.41490
G1 X103.509 Y108.473 E13.48616
G1 X102.948 Y108.684 E13.55743
G1 X102.374 Y108.858 E13.62871
G1 X101.789 Y108.994 E13.69998
G1 X101.197 Y109.092 E13.77125
G1 X100.600 Y109.151 E13.84253
G1 X100.000 Y109.171 E13.91379
G1 X99.400 Y109.151 E13.98508
G1 X98.803 Y109.092 E14.05634
G1 X98.211 Y108.994 E14.12761
G1 X97.626 Y108.858 E14.19889
G1 X97.052 Y108.684 E14.27017
G1 X96.491 Y108.473 E14.34144
G1 X95.944 Y108.225 E14.41270
G1 X95.415 Y107.942 E14.48398
G1 X94.905 Y107.625 E14.55525
G1 X94.417 Y107.276 E14.62653
G1 X93.953 Y106.895 E14.69780
G1 X93.515 Y106.485 E14.76907
G1 X93.105 Y106.047 E14.84033
G1 X92.724 Y105.583 E14.91162
G1 X92.375 Y105.095 E14.98289
G1 X92.058 Y104.585 E15.05416
G1 X91.775 Y104.056 E15.12544
G1 X91.527 Y103.509 E15.19671
G1 X91.316 Y102.948 E15.26797
G1 X91.142 Y102.374 E15.33925
G1 X91.006 Y101.789 E15.41052
G1 X90.908 Y101.197 E15.48180
G1 X90.849 Y100.600 E15.55307
G1 X90.829 Y100.000 E15.62434
G1 X90.849 Y99.400 E15.69562
G1 X90.908 Y98.803 E15.76689
G1 X91.006 Y98.211 E15.83816
G1 X91.142 Y97.626 E15.90943
G1 X91.316 Y97.052 E15.98071
G1 X91.527 Y96.491 E16.05198
G1 X91.775 Y95.944 E16.12324
G1 X92.058 Y95.415 E16.19452
G1 X92.375 Y94.905 E16.26579
G1 X92.724 Y94.417 E16.33707
G1 X93.105 Y93.953 E16.40834
G1 X93.515 Y93.515 E16.47962
G1 X94.198 Y92.876 E16.59066
G1 X94.198 Y98.065 E17.20696
G1 X95.828 Y98.065 E17.40058
G1 X95.574 Y98.814 E17.49447
G1 X95.457 Y99.403 E17.56576
G1 X95.418 Y99.999 E17.63678
G1 X95.457 Y100.599 E17.70809
G1 X95.574 Y101.185 E17.77914
G1 X95.767 Y101.754 E17.85049
G1 X96.032 Y102.291 E17.92161
G1 X96.365 Y102.790 E17.99279
G1 X96.764 Y103.245 E18.06479
G1 X97.192 Y103.619 E18.13215
G1 X97.702 Y103.964 E18.20533
G1 X98.228 Y104.227 E18.27515
G1 X98.815 Y104.426 E18.34878
G1 X99.402 Y104.543 E18.41989
G1 X99.999 Y104.582 E18.49101
G1 X100.598 Y104.543 E18.56222
G1 X101.186 Y104.426 E18.63344
G1 X101.772 Y104.227 E18.70700
G1 X102.298 Y103.964 E18.77681
G1 X102.817 Y103.611 E18.85137
G1 X103.236 Y103.245 E18.91735
G1 X103.636 Y102.789 E18.98949
G1 X103.968 Y102.292 E19.06039
G1 X104.233 Y101.754 E19.13164
G1 X104.273 Y101.637 E19.14635
G1 X104.426 Y101.186 E19.20292
G1 X104.543 Y100.597 E19.27420
G1 X104.582 Y100.001 E19.34522
G1 X104.543 Y99.402 E19.41643
G1 X104.426 Y98.814 E19.48766
G1 X104.172 Y98.065 E19.58155
G1 X105.574 Y98.065 E19.74811
G1 X103.418 Y91.994 F7800.000
G1 X96.582 Y91.994 E20.56010 F540.000
G1 X96.496 Y91.525 E20.61673
G1 X97.052 Y91.316 E20.68728
G1 X97.605 Y91.148 E20.75589
G1 X98.237 Y91.001 E20.83302
G1 X98.810 Y90.907 E20.90197
G1 X99.402 Y90.848 E20.97253
G1 X100.000 Y90.829 E21.04362
G1 X100.599 Y90.848 E21.11487
G1 X101.191 Y90.907 E21.18545
G1 X101.763 Y91.001 E21.25427
G1 X102.394 Y91.148 E21.33127
G1 X102.948 Y91.316 E21.40000
G1 X103.504 Y91.525 E21.47056
G1 X103.429 Y91.935 E21.52006
G1 X103.904 Y90.922 F7800.000
G1 X104.372 Y91.134 E21.58106 F540.000
G1 X104.943 Y91.439 E21.65788
G1 X105.492 Y91.781 E21.73471
G1 X106.018 Y92.158 E21.81154
G1 X106.518 Y92.568 E21.88836
G1 X106.990 Y93.010 E21.96519
G1 X107.432 Y93.482 E22.04201
G1 X107.843 Y93.982 E22.11885
G1 X108.219 Y94.508 E22.19567
G1 X108.561 Y95.057 E22.27249
G1 X108.866 Y95.628 E22.34933
G1 X109.133 Y96.217 E22.42614
G1 X109.361 Y96.823 E22.50297
G1 X109.548 Y97.441 E22.57979
G1 X109.695 Y98.072 E22.65663
G1 X109.801 Y98.710 E22.73345
G1 X109.864 Y99.353 E22.81027
G1 X109.885 Y100.000 E22.88710
G1 X109.864 Y100.647 E22.96393
G1 X109.801 Y101.290 E23.04075
G1 X109.695 Y101.928 E23.11757
G1 X109.548 Y102.559 E23.19441
G1 X109.361 Y103.178 E23.27123
G1 X109.133 Y103.783 E23.34806
G1 X108.866 Y104.372 E23.42488
G1 X108.561 Y104.943 E23.50170
G1 X108.219 Y105.492 E23.57853
G1 X107.842 Y106.018 E23.65536
G1 X107.432 Y106.518 E23.73219
G1 X106.990 Y106.990 E23.80901
G1 X106.518 Y107.432 E23.88584
G1 X106.018 Y107.842 E23.96265
G1 X105.492 Y108.219 E24.03950
G1 X104.943 Y108.561 E24.11631
G1 X104.372 Y108.866 E24.19315
G1 X103.783 Y109.133 E24.26996
G1 X103.178 Y109.361 E24.34679
G1 X102.558 Y109.548 E24.42362
G1 X101.928 Y109.695 E24.50045
G1 X101.290 Y109.801 E24.57727
G1 X100.647 Y109.864 E24.65410
G1 X100.000 Y109.885 E24.73091
G1 X99.353 Y109.864 E24.80775
G1 X98.710 Y109.801 E24.88457
G1 X98.072 Y109.695 E24.96139
G1 X97.442 Y109.548 E25.03822
G1 X96.822 Y109.361 E25.11505
G1 X96.217 Y109.133 E25.19188
G1 X95.628 Y108.866 E25.26870
G1 X95.057 Y108.561 E25.34553
G1 X94.508 Y108.219 E25.42235
G1 X93.982 Y107.842 E25.49918
G1 X93.482 Y107.432 E25.57601
G1 X93.010 Y106.990 E25.65283
G1 X92.568 Y106.518 E25.72965
G1 X92.157 Y106.018 E25.80649
G1 X91.781 Y105.492 E25.88331
G1 X91.439 Y104.943 E25.96014
G1 X91.134 Y104.372 E26.03697
G1 X90.867 Y103.783 E26.11379
G1 X90.639 Y103.178 E26.19061
G1 X90.452 Y102.558 E26.26744
G1 X90.305 Y101.929 E26.34426
G1 X90.199 Y101.290 E26.42109
G1 X90.136 Y100.647 E26.49792
G1 X90.115 Y100.000 E26.57474
G1 X90.136 Y99.353 E26.65157
G1 X90.199 Y98.710 E26.72839
G1 X90.305 Y98.071 E26.80522
G1 X90.452 Y97.442 E26.88205
G1 X90.639 Y96.822 E26.95888
G1 X90.867 Y96.217 E27.03570
G1 X91.134 Y95.628 E27.11252
G1 X91.439 Y95.057 E27.18935
G1 X91.781 Y94.508 E27.26617
G1 X92.158 Y93.982 E27.34300
G1 X92.568 Y93.482 E27.41983
G1 X93.010 Y93.010 E27.49666
G1 X93.482 Y92.568 E27.57347
G1 X93.982 Y92.158 E27.65030
G1 X94.508 Y91.781 E27.72714
G1 X95.057 Y91.439 E27.80396
G1 X95.628 Y91.134 E27.88078
G1 X96.217 Y90.867 E27.95761
G1 X96.822 Y90.639 E28.03443
G1 X97.429 Y90.455 E28.10968
G1 X98.098 Y90.300 E28.19128
G1 X98.717 Y90.198 E28.26578
G1 X99.370 Y90.135 E28.34372
G1 X99.998 Y90.114 E28.41830 F540.000
G1 X100.646 Y90.135 E28.49534
G1 X101.284 Y90.198 E28.57147
G1 X101.902 Y90.300 E28.64584
G1 X102.571 Y90.455 E28.72741
G1 X103.178 Y90.639 E28.80269
G1 X103.850 Y90.897 E28.88819
G1 X104.199 Y90.272 F7800.000
G1 X104.688 Y90.493 E28.95197 F378.000
G1 X105.300 Y90.820 E29.03434
G1 X105.889 Y91.187 E29.11673
G1 X106.453 Y91.591 E29.19911
G1 X106.989 Y92.031 E29.28149
G1 X107.495 Y92.505 E29.36387
G1 X107.969 Y93.011 E29.44624
G1 X108.409 Y93.547 E29.52863
G1 X108.813 Y94.111 E29.61100
G1 X109.180 Y94.700 E29.69338
G1 X109.507 Y95.312 E29.77577
G1 X109.793 Y95.944 E29.85814
G1 X110.037 Y96.593 E29.94052
G1 X110.239 Y97.257 E30.02290
G1 X110.396 Y97.932 E30.10528
G1 X110.509 Y98.616 E30.18766
G1 X110.577 Y99.307 E30.27003
G1 X110.600 Y100.000 E30.35242
G1 X110.577 Y100.693 E30.43480
G1 X110.509 Y101.384 E30.51718
G1 X110.396 Y102.068 E30.59955
G1 X110.239 Y102.743 E30.68194
G1 X110.037 Y103.407 E30.76431
G1 X109.793 Y104.056 E30.84669
G1 X109.507 Y104.688 E30.92907
G1 X109.180 Y105.300 E31.01144
G1 X108.813 Y105.889 E31.09382
G1 X108.409 Y106.453 E31.17621
G1 X107.969 Y106.989 E31.25859
G1 X107.495 Y107.495 E31.34097
G1 X106.989 Y107.969 E31.42335
G1 X106.453 Y108.409 E31.50572
G1 X105.889 Y108.813 E31.58811
G1 X105.300 Y109.180 E31.67048
G1 X104.688 Y109.507 E31.75287
G1 X104.056 Y109.793 E31.83524
G1 X103.407 Y110.037 E31.91762
G1 X102.743 Y110.239 E32.00000
G1 X102.068 Y110.396 E32.08238
G1 X101.384 Y110.509 E32.16476
G1 X100.693 Y110.577 E32.24714
G1 X100.000 Y110.600 E32.32951
G1 X99.307 Y110.577 E32.41190
G1 X98.616 Y110.509 E32.49427
G1 X97.932 Y110.396 E32.57665
G1 X97.257 Y110.239 E32.65903
G1 X96.593 Y110.037 E32.74142
G1 X95.944 Y109.793 E32.82379
G1 X95.312 Y109.507 E32.90616
G1 X94.700 Y109.180 E32.98855
G1 X94.111 Y108.813 E33.07093
G1 X93.547 Y108.409 E33.15331
G1 X93.011 Y107.969 E33.23569
G1 X92.505 Y107.495 E33.31807
G1 X92.031 Y106.989 E33.40044
G1 X91.591 Y106.453 E33.48283
G1 X91.187 Y105.889 E33.56520
G1 X90.820 Y105.300 E33.64758
G1 X90.493 Y104.688 E33.72997
G1 X90.207 Y104.056 E33.81234
G1 X89.963 Y103.407 E33.89471
G1 X89.761 Y102.743 E33.97710
G1 X89.604 Y102.068 E34.05948
G1 X89.491 Y101.384 E34.14186
G1 X89.423 Y100.693 E34.22424
G1 X89.400 Y100.000 E34.30661
G1 X89.423 Y99.307 E34.38900
G1 X89.491 Y98.616 E34.47137
G1 X89.604 Y97.932 E34.55375
G1 X89.761 Y97.257 E34.63613
G1 X89.963 Y96.593 E34.71852
G1 X90.207 Y95.944 E34.80089
G1 X90.493 Y95.312 E34.88326
G1 X90.820 Y94.700 E34.96565
G1 X91.187 Y94.111 E35.04802
G1 X91.591 Y93.547 E35.13041
G1 X92.031 Y93.011 E35.21279
G1 X92.505 Y92.505 E35.29517
G1 X93.011 Y92.031 E35.37754
G1 X93.547 Y91.591 E35.45992
G1 X94.111 Y91.187 E35.54231
G1 X94.700 Y90.820 E35.62469
G1 X95.312 Y90.493 E35.70706
G1 X95.944 Y90.207 E35.78944
G1 X96.593 Y89.963 E35.87182
G1 X97.252 Y89.763 E35.95363
G1 X97.959 Y89.600 E36.03977
G1 X98.622 Y89.490 E36.11962
G1 X99.306 Y89.423 E36.20125
G1 X100.039 Y89.401 E36.28832
G1 X100.700 Y89.423 E36.36689 F378.000
G1 X101.364 Y89.489 E36.44618
